; generated by PrusaSlicer 2.9.0 on 2025-01-25 at 14:46:18 UTC

; 

; external perimeters extrusion width = 0.45mm
; perimeters extrusion width = 0.45mm
; infill extrusion width = 0.45mm
; solid infill extrusion width = 0.45mm
; top infill extrusion width = 0.42mm
; first layer extrusion width = 0.50mm

M73 P0 R13
M73 Q0 S13
M201 X4000 Y4000 Z200 E2500 ; sets maximum accelerations, mm/sec^2
M203 X300 Y300 Z40 E100 ; sets maximum feedrates, mm / sec
M204 P4000 R1200 T4000 ; sets acceleration (P, T) and retract acceleration (R), mm/sec^2
M205 X8.00 Y8.00 Z2.00 E10.00 ; sets the jerk limits, mm/sec
M205 S0 T0 ; sets the minimum extruding and travel feed rate, mm/sec

M486 S0
M486 Acube.stl
M486 S-1

;TYPE:Custom
M17 ; enable steppers
M862.1 P0.4 A0 F0 ; nozzle check
M862.3 P "MK4" ; printer model check
M862.5 P2 ; g-code level check
M862.6 P"Input shaper" ; FW feature check
M115 U6.1.3+7898

M555 X115 Y91 W32 H24

G90 ; use absolute coordinates
M83 ; extruder relative mode

M140 S60 ; set bed temp
M104 T0 S170 ; set extruder temp for bed leveling
M109 T0 R170 ; wait for temp

M84 E ; turn off E motor

G28 ; home all without mesh bed level

G1 X42 Y-4 Z5 F4800

M302 S160 ; lower cold extrusion limit to 160C


G1 E-2 F2400 ; retraction


M84 E ; turn off E motor

G29 P9 X10 Y-4 W32 H4

M106 S100

G0 Z40 F10000

M190 S60 ; wait for bed temp

M107

;
; MBL
;
M84 E ; turn off E motor
G29 P1 ; invalidate mbl & probe print area
G29 P1 X0 Y0 W50 H20 C ; probe near purge place
G29 P3.2 ; interpolate mbl probes
G29 P3.13 ; extrapolate mbl outside probe area
G29 A ; activate mbl

; prepare for purge
M104 S230
G0 X0 Y-4 Z15 F4800 ; move away and ready for the purge
M109 S230

G92 E0
M569 S0 E ; set spreadcycle mode for extruder

;
; Extrude purge line
;
G92 E0 ; reset extruder position
G1 E2 F2400 ; deretraction after the initial one before nozzle cleaning
G0 E7 X15 Z0.2 F500 ; purge
G0 X25 E4 F500 ; purge
G0 X35 E4 F650 ; purge
G0 X45 E4 F800 ; purge
G0 X48 Z0.05 F8000 ; wipe, move close to the bed
G0 X51 Z0.2 F8000 ; wipe, move quickly away from the bed

G92 E0
M221 S100 ; set flow to 100%
G21 ; set units to millimeters
G90 ; use absolute coordinates
M83 ; use relative distances for extrusion
M900 K0.05 ; Filament gcode


M572 S0.036 ; Filament gcode


M142 S36 ; set heatbreak target temp
M107
;LAYER_CHANGE
;Z:0.2
;HEIGHT:0.2
G1 E-.7 F2100
G1 Z.8 F720
M486 S0
G1 X134.093 Y114.093 F18000
G1 Z.2 F720
M73 P1 R13
M73 Q1 S13
G1 E.7 F1500
M204 P500
;TYPE:Perimeter
;WIDTH:0.499999
G1 F1241
G1 X115.907 Y114.093 E.69118
G1 X115.907 Y95.907 E.69118
G1 X134.093 Y95.907 E.69118
G1 X134.093 Y105 E.34559
G1 X134.093 Y114.033 E.34331
M204 P2500
M204 T4000
G1 X134.55 Y114.55 F18000
M204 P500
;TYPE:External perimeter
G1 F1241
G1 X115.45 Y114.55 E.72592
G1 X115.45 Y95.45 E.72592
G1 X134.55 Y95.45 E.72592
G1 X134.55 Y105 E.36296
G1 X134.55 Y114.49 E.36068
M204 P2500
G1 X134.154 Y114.549 F18000
M73 Q2 S13
M106 S127.5
;LAYER_CHANGE
;Z:0.4
;HEIGHT:0.2
;BEFORE_LAYER_CHANGE
G92 E0.0
;0.4
M201 X3999.98 Y3999.98

G1 X134.154 Y114.549 Z.2 F18000
G1 X134.368 Y114.368 Z.4 F1688
;AFTER_LAYER_CHANGE
;0.4
M74 W0.0168927

M104 S220 ; set temperature
G1 X134.368 Y114.368 F18000
G1 Z.4 F720
;TYPE:Perimeter
;WIDTH:0.449999
G1 F1178
G1 X115.632 Y114.368 E.63419
G1 X115.632 Y95.632 E.63419
M73 P2 R13
G1 X134.368 Y95.632 E.63419
G1 X134.368 Y114.308 E.63216
G1 X134.775 Y114.775 F18000
M204 P1500
;TYPE:External perimeter
G1 F1178
G1 X134.1 Y114.775 E.02285
G1 X115.9 Y114.775 E.61605
G1 X115.225 Y114.775 E.02285
G1 X115.225 Y114.1 E.02285
G1 X115.225 Y95.9 E.61605
G1 X115.225 Y95.225 E.02285
G1 X115.9 Y95.225 E.02285
G1 X134.1 Y95.225 E.61605
G1 X134.775 Y95.225 E.02285
G1 X134.775 Y95.9 E.02285
G1 X134.775 Y114.1 E.61605
G1 X134.775 Y114.715 E.02082
M204 P2500
G1 X134.379 Y114.774 F18000
M106 S255
;LAYER_CHANGE
;Z:0.6
;HEIGHT:0.2
;BEFORE_LAYER_CHANGE
G92 E0.0
;0.6
M201 X3999.97 Y3999.97

G1 X134.379 Y114.774 Z.4 F18000
G1 X134.368 Y114.368 Z.6 F2125
;AFTER_LAYER_CHANGE
;0.6
M74 W0.0323414

G1 X134.368 Y114.368 F18000
G1 Z.6 F720
;TYPE:Perimeter
G1 F1154
G1 X115.632 Y114.368 E.63419
G1 X115.632 Y95.632 E.63419
M73 P3 R13
M73 Q3 S13
G1 X134.368 Y95.632 E.63419
G1 X134.368 Y114.308 E.63216
G1 X134.775 Y114.775 F18000
M204 P1500
;TYPE:External perimeter
G1 F1154
G1 X115.225 Y114.775 E.66174
G1 X115.225 Y95.225 E.66174
G1 X134.775 Y95.225 E.66174
G1 X134.775 Y114.715 E.65971
M204 P2500
G1 X134.379 Y114.774 F18000
;LAYER_CHANGE
;Z:0.8
;HEIGHT:0.2
;BEFORE_LAYER_CHANGE
G92 E0.0
;0.8
M201 X3999.95 Y3999.95

G1 X134.379 Y114.774 Z.6 F18000
G1 X134.368 Y114.368 Z.8 F2125
;AFTER_LAYER_CHANGE
;0.8
M74 W0.04779

G1 X134.368 Y114.368 F18000
G1 Z.8 F720
;TYPE:Perimeter
G1 F1154
G1 X115.632 Y114.368 E.63419
G1 X115.632 Y95.632 E.63419
M73 P4 R13
M73 Q4 S13
G1 X134.368 Y95.632 E.63419
G1 X134.368 Y114.308 E.63216
G1 X134.775 Y114.775 F18000
M204 P1500
;TYPE:External perimeter
G1 F1154
G1 X115.225 Y114.775 E.66174
G1 X115.225 Y95.225 E.66174
G1 X134.775 Y95.225 E.66174
G1 X134.775 Y114.715 E.65971
M204 P2500
G1 X134.379 Y114.774 F18000
;LAYER_CHANGE
;Z:1
;HEIGHT:0.2
;BEFORE_LAYER_CHANGE
G92 E0.0
;1
M201 X3999.93 Y3999.93

G1 X134.379 Y114.774 Z.8 F18000
G1 X134.368 Y114.368 Z1 F2125
;AFTER_LAYER_CHANGE
;1
M74 W0.0632386

G1 X134.368 Y114.368 F18000
G1 Z1 F720
;TYPE:Perimeter
G1 F1154
G1 X115.632 Y114.368 E.63419
G1 X115.632 Y95.632 E.63419
M73 P5 R13
M73 Q5 S13
G1 X134.368 Y95.632 E.63419
M73 P5 R12
G1 X134.368 Y114.308 E.63216
M73 Q5 S12
G1 X134.775 Y114.775 F18000
M204 P1500
;TYPE:External perimeter
G1 F1154
G1 X115.225 Y114.775 E.66174
G1 X115.225 Y95.225 E.66174
G1 X134.775 Y95.225 E.66174
G1 X134.775 Y114.715 E.65971
M204 P2500
G1 X134.379 Y114.774 F18000
;LAYER_CHANGE
;Z:1.2
;HEIGHT:0.2
;BEFORE_LAYER_CHANGE
G92 E0.0
;1.2
M201 X3999.92 Y3999.92

G1 X134.379 Y114.774 Z1 F18000
G1 X134.368 Y114.368 Z1.2 F2125
;AFTER_LAYER_CHANGE
;1.2
M74 W0.0786872

G1 X134.368 Y114.368 F18000
G1 Z1.2 F720
;TYPE:Perimeter
G1 F1154
G1 X115.632 Y114.368 E.63419
G1 X115.632 Y95.632 E.63419
M73 P6 R12
M73 Q6 S12
G1 X134.368 Y95.632 E.63419
G1 X134.368 Y114.308 E.63216
G1 X134.775 Y114.775 F18000
M204 P1500
;TYPE:External perimeter
G1 F1154
G1 X115.225 Y114.775 E.66174
G1 X115.225 Y95.225 E.66174
G1 X134.775 Y95.225 E.66174
G1 X134.775 Y114.715 E.65971
M204 P2500
G1 X134.379 Y114.774 F18000
;LAYER_CHANGE
;Z:1.4
;HEIGHT:0.2
;BEFORE_LAYER_CHANGE
G92 E0.0
;1.4
M201 X3999.9 Y3999.9

G1 X134.379 Y114.774 Z1.2 F18000
G1 X134.368 Y114.368 Z1.4 F2125
;AFTER_LAYER_CHANGE
;1.4
M74 W0.0941358

G1 X134.368 Y114.368 F18000
G1 Z1.4 F720
;TYPE:Perimeter
G1 F1154
G1 X115.632 Y114.368 E.63419
G1 X115.632 Y95.632 E.63419
M73 Q7 S12
G1 X134.368 Y95.632 E.63419
M73 P7 R12
G1 X134.368 Y114.308 E.63216
G1 X134.775 Y114.775 F18000
M204 P1500
;TYPE:External perimeter
G1 F1154
G1 X115.225 Y114.775 E.66174
G1 X115.225 Y95.225 E.66174
G1 X134.775 Y95.225 E.66174
G1 X134.775 Y114.715 E.65971
M204 P2500
G1 X134.379 Y114.774 F18000
;LAYER_CHANGE
;Z:1.6
;HEIGHT:0.2
;BEFORE_LAYER_CHANGE
G92 E0.0
;1.6
M201 X3999.88 Y3999.88

G1 X134.379 Y114.774 Z1.4 F720
G1 X134.368 Y114.368 Z1.6 F2125
;AFTER_LAYER_CHANGE
;1.6
M74 W0.109584

G1 X134.368 Y114.368 F18000
G1 Z1.6 F720
;TYPE:Perimeter
G1 F1154
G1 X115.632 Y114.368 E.63419
G1 X115.632 Y95.632 E.63419
M73 Q8 S12
G1 X134.368 Y95.632 E.63419
M73 P8 R12
G1 X134.368 Y114.308 E.63216
G1 X134.775 Y114.775 F18000
M204 P1500
;TYPE:External perimeter
G1 F1154
G1 X115.225 Y114.775 E.66174
G1 X115.225 Y95.225 E.66174
G1 X134.775 Y95.225 E.66174
G1 X134.775 Y114.715 E.65971
M204 P2500
G1 X134.379 Y114.774 F18000
;LAYER_CHANGE
;Z:1.8
;HEIGHT:0.2
;BEFORE_LAYER_CHANGE
G92 E0.0
;1.8
M201 X3999.87 Y3999.87

G1 X134.379 Y114.774 Z1.6 F18000
G1 X134.368 Y114.368 Z1.8 F2125
;AFTER_LAYER_CHANGE
;1.8
M74 W0.125033

G1 X134.368 Y114.368 F18000
G1 Z1.8 F720
;TYPE:Perimeter
G1 F1154
G1 X115.632 Y114.368 E.63419
G1 X115.632 Y95.632 E.63419
G1 X134.368 Y95.632 E.63419
M73 P9 R12
M73 Q9 S12
G1 X134.368 Y114.308 E.63216
G1 X134.775 Y114.775 F18000
M204 P1500
;TYPE:External perimeter
G1 F1154
G1 X115.225 Y114.775 E.66174
G1 X115.225 Y95.225 E.66174
G1 X134.775 Y95.225 E.66174
G1 X134.775 Y114.715 E.65971
M204 P2500
G1 X134.379 Y114.774 F18000
;LAYER_CHANGE
;Z:2
;HEIGHT:0.2
;BEFORE_LAYER_CHANGE
G92 E0.0
;2
M201 X3999.85 Y3999.85

G1 X134.379 Y114.774 Z1.8 F720
G1 X134.368 Y114.368 Z2 F2125
;AFTER_LAYER_CHANGE
;2
M74 W0.140482

G1 X134.368 Y114.368 F18000
G1 Z2 F720
;TYPE:Perimeter
G1 F1154
G1 X115.632 Y114.368 E.63419
G1 X115.632 Y95.632 E.63419
G1 X134.368 Y95.632 E.63419
M73 P10 R12
M73 Q10 S12
G1 X134.368 Y114.308 E.63216
G1 X134.775 Y114.775 F18000
M204 P1500
;TYPE:External perimeter
G1 F1154
G1 X115.225 Y114.775 E.66174
G1 X115.225 Y95.225 E.66174
G1 X134.775 Y95.225 E.66174
G1 X134.775 Y114.715 E.65971
M204 P2500
G1 X134.379 Y114.774 F18000
;LAYER_CHANGE
;Z:2.2
;HEIGHT:0.2
;BEFORE_LAYER_CHANGE
G92 E0.0
;2.2
M201 X3999.83 Y3999.83

G1 X134.379 Y114.774 Z2 F720
G1 X134.368 Y114.368 Z2.2 F2125
;AFTER_LAYER_CHANGE
;2.2
M74 W0.15593

G1 X134.368 Y114.368 F18000
G1 Z2.2 F720
;TYPE:Perimeter
G1 F1154
G1 X115.632 Y114.368 E.63419
G1 X115.632 Y95.632 E.63419
G1 X134.368 Y95.632 E.63419
M73 P11 R12
M73 Q11 S12
G1 X134.368 Y114.308 E.63216
G1 X134.775 Y114.775 F18000
M204 P1500
;TYPE:External perimeter
G1 F1154
G1 X115.225 Y114.775 E.66174
G1 X115.225 Y95.225 E.66174
G1 X134.775 Y95.225 E.66174
G1 X134.775 Y114.715 E.65971
M204 P2500
G1 X134.379 Y114.774 F18000
;LAYER_CHANGE
;Z:2.4
;HEIGHT:0.2
;BEFORE_LAYER_CHANGE
G92 E0.0
;2.4
M201 X3999.82 Y3999.82

G1 X134.379 Y114.774 Z2.2 F18000
G1 X134.368 Y114.368 Z2.4 F2125
;AFTER_LAYER_CHANGE
;2.4
M74 W0.171379

G1 X134.368 Y114.368 F18000
G1 Z2.4 F720
;TYPE:Perimeter
G1 F1154
G1 X115.632 Y114.368 E.63419
G1 X115.632 Y95.632 E.63419
G1 X134.368 Y95.632 E.63419
M73 P12 R12
M73 Q12 S12
G1 X134.368 Y114.308 E.63216
G1 X134.775 Y114.775 F18000
M204 P1500
;TYPE:External perimeter
G1 F1154
G1 X115.225 Y114.775 E.66174
G1 X115.225 Y95.225 E.66174
G1 X134.775 Y95.225 E.66174
M73 P12 R11
M73 Q12 S11
G1 X134.775 Y114.715 E.65971
M204 P2500
G1 X134.379 Y114.774 F18000
;LAYER_CHANGE
;Z:2.6
;HEIGHT:0.2
;BEFORE_LAYER_CHANGE
G92 E0.0
;2.6
M201 X3999.8 Y3999.8

G1 X134.379 Y114.774 Z2.4 F18000
G1 X134.368 Y114.368 Z2.6 F2125
;AFTER_LAYER_CHANGE
;2.6
M74 W0.186827

G1 X134.368 Y114.368 F18000
G1 Z2.6 F720
;TYPE:Perimeter
G1 F1154
G1 X115.632 Y114.368 E.63419
G1 X115.632 Y95.632 E.63419
G1 X134.368 Y95.632 E.63419
M73 P13 R11
M73 Q13 S11
G1 X134.368 Y114.308 E.63216
G1 X134.775 Y114.775 F18000
M204 P1500
;TYPE:External perimeter
G1 F1154
G1 X115.225 Y114.775 E.66174
G1 X115.225 Y95.225 E.66174
G1 X134.775 Y95.225 E.66174
G1 X134.775 Y114.715 E.65971
M204 P2500
G1 X134.379 Y114.774 F18000
;LAYER_CHANGE
;Z:2.8
;HEIGHT:0.2
;BEFORE_LAYER_CHANGE
G92 E0.0
;2.8
M201 X3999.78 Y3999.78

G1 X134.379 Y114.774 Z2.6 F720
G1 X134.368 Y114.368 Z2.8 F2125
;AFTER_LAYER_CHANGE
;2.8
M74 W0.202276

G1 X134.368 Y114.368 F18000
G1 Z2.8 F720
;TYPE:Perimeter
G1 F1154
G1 X115.632 Y114.368 E.63419
G1 X115.632 Y95.632 E.63419
G1 X134.368 Y95.632 E.63419
M73 Q14 S11
G1 X134.368 Y114.308 E.63216
M73 P14 R11
G1 X134.775 Y114.775 F18000
M204 P1500
;TYPE:External perimeter
G1 F1154
G1 X115.225 Y114.775 E.66174
G1 X115.225 Y95.225 E.66174
G1 X134.775 Y95.225 E.66174
G1 X134.775 Y114.715 E.65971
M204 P2500
G1 X134.379 Y114.774 F18000
;LAYER_CHANGE
;Z:3
;HEIGHT:0.2
;BEFORE_LAYER_CHANGE
G92 E0.0
;3
M201 X3999.77 Y3999.77

G1 X134.379 Y114.774 Z2.8 F720
G1 X134.368 Y114.368 Z3 F2125
;AFTER_LAYER_CHANGE
;3
M74 W0.217725

G1 X134.368 Y114.368 F18000
G1 Z3 F720
;TYPE:Perimeter
G1 F1154
G1 X115.632 Y114.368 E.63419
G1 X115.632 Y95.632 E.63419
G1 X134.368 Y95.632 E.63419
G1 X134.368 Y114.308 E.63216
M73 P15 R11
M73 Q15 S11
G1 X134.775 Y114.775 F18000
M204 P1500
;TYPE:External perimeter
G1 F1154
G1 X115.225 Y114.775 E.66174
G1 X115.225 Y95.225 E.66174
G1 X134.775 Y95.225 E.66174
G1 X134.775 Y114.715 E.65971
M204 P2500
G1 X134.379 Y114.774 F18000
;LAYER_CHANGE
;Z:3.2
;HEIGHT:0.2
;BEFORE_LAYER_CHANGE
G92 E0.0
;3.2
M201 X3999.75 Y3999.75

G1 X134.379 Y114.774 Z3 F18000
G1 X134.368 Y114.368 Z3.2 F2125
;AFTER_LAYER_CHANGE
;3.2
M74 W0.233173

G1 X134.368 Y114.368 F18000
G1 Z3.2 F720
;TYPE:Perimeter
G1 F1154
G1 X115.632 Y114.368 E.63419
G1 X115.632 Y95.632 E.63419
G1 X134.368 Y95.632 E.63419
G1 X134.368 Y114.308 E.63216
M73 P16 R11
M73 Q16 S11
G1 X134.775 Y114.775 F18000
M204 P1500
;TYPE:External perimeter
G1 F1154
G1 X115.225 Y114.775 E.66174
G1 X115.225 Y95.225 E.66174
G1 X134.775 Y95.225 E.66174
G1 X134.775 Y114.715 E.65971
M204 P2500
G1 X134.379 Y114.774 F18000
;LAYER_CHANGE
;Z:3.4
;HEIGHT:0.2
;BEFORE_LAYER_CHANGE
G92 E0.0
;3.4
M201 X3999.73 Y3999.73

G1 X134.379 Y114.774 Z3.2 F18000
G1 X134.368 Y114.368 Z3.4 F2125
;AFTER_LAYER_CHANGE
;3.4
M74 W0.248622

G1 X134.368 Y114.368 F18000
G1 Z3.4 F720
;TYPE:Perimeter
G1 F1154
G1 X115.632 Y114.368 E.63419
G1 X115.632 Y95.632 E.63419
G1 X134.368 Y95.632 E.63419
G1 X134.368 Y114.308 E.63216
M73 P17 R11
M73 Q17 S11
G1 X134.775 Y114.775 F18000
M204 P1500
;TYPE:External perimeter
G1 F1154
G1 X115.225 Y114.775 E.66174
G1 X115.225 Y95.225 E.66174
G1 X134.775 Y95.225 E.66174
G1 X134.775 Y114.715 E.65971
M204 P2500
G1 X134.379 Y114.774 F18000
;LAYER_CHANGE
;Z:3.6
;HEIGHT:0.2
;BEFORE_LAYER_CHANGE
G92 E0.0
;3.6
M201 X3999.72 Y3999.72

G1 X134.379 Y114.774 Z3.4 F18000
G1 X134.368 Y114.368 Z3.6 F2125
;AFTER_LAYER_CHANGE
;3.6
M74 W0.26407

G1 X134.368 Y114.368 F18000
G1 Z3.6 F720
;TYPE:Perimeter
G1 F1154
G1 X115.632 Y114.368 E.63419
G1 X115.632 Y95.632 E.63419
G1 X134.368 Y95.632 E.63419
G1 X134.368 Y114.308 E.63216
M73 P18 R11
M73 Q18 S11
G1 X134.775 Y114.775 F18000
M204 P1500
;TYPE:External perimeter
G1 F1154
G1 X115.225 Y114.775 E.66174
G1 X115.225 Y95.225 E.66174
G1 X134.775 Y95.225 E.66174
G1 X134.775 Y114.715 E.65971
M204 P2500
G1 X134.379 Y114.774 F18000
;LAYER_CHANGE
;Z:3.8
;HEIGHT:0.2
;BEFORE_LAYER_CHANGE
G92 E0.0
;3.8
M201 X3999.7 Y3999.7

G1 X134.379 Y114.774 Z3.6 F720
G1 X134.368 Y114.368 Z3.8 F2125
;AFTER_LAYER_CHANGE
;3.8
M74 W0.279519

G1 X134.368 Y114.368 F18000
G1 Z3.8 F720
;TYPE:Perimeter
G1 F1154
G1 X115.632 Y114.368 E.63419
G1 X115.632 Y95.632 E.63419
G1 X134.368 Y95.632 E.63419
G1 X134.368 Y114.308 E.63216
M73 P19 R11
M73 Q19 S11
G1 X134.775 Y114.775 F18000
M204 P1500
;TYPE:External perimeter
G1 F1154
G1 X115.225 Y114.775 E.66174
G1 X115.225 Y95.225 E.66174
G1 X134.775 Y95.225 E.66174
G1 X134.775 Y114.715 E.65971
M204 P2500
G1 X134.379 Y114.774 F18000
;LAYER_CHANGE
;Z:4
;HEIGHT:0.2
;BEFORE_LAYER_CHANGE
G92 E0.0
;4
M201 X3999.68 Y3999.68

G1 X134.379 Y114.774 Z3.8 F720
G1 X134.368 Y114.368 Z4 F2125
;AFTER_LAYER_CHANGE
;4
M74 W0.294967

G1 X134.368 Y114.368 F18000
G1 Z4 F720
;TYPE:Perimeter
G1 F1154
G1 X115.632 Y114.368 E.63419
G1 X115.632 Y95.632 E.63419
M73 P19 R10
G1 X134.368 Y95.632 E.63419
M73 Q19 S10
G1 X134.368 Y114.308 E.63216
M73 Q20 S10
G1 X134.775 Y114.775 F18000
M73 P20 R10
M204 P1500
;TYPE:External perimeter
G1 F1154
G1 X115.225 Y114.775 E.66174
G1 X115.225 Y95.225 E.66174
G1 X134.775 Y95.225 E.66174
G1 X134.775 Y114.715 E.65971
M204 P2500
G1 X134.379 Y114.774 F18000
;LAYER_CHANGE
;Z:4.2
;HEIGHT:0.2
;BEFORE_LAYER_CHANGE
G92 E0.0
;4.2
M201 X3999.67 Y3999.67

G1 X134.379 Y114.774 Z4 F18000
G1 X134.368 Y114.368 Z4.2 F2125
;AFTER_LAYER_CHANGE
;4.2
M74 W0.310416

G1 X134.368 Y114.368 F18000
G1 Z4.2 F720
;TYPE:Perimeter
G1 F1154
G1 X115.632 Y114.368 E.63419
G1 X115.632 Y95.632 E.63419
G1 X134.368 Y95.632 E.63419
G1 X134.368 Y114.308 E.63216
M73 Q21 S10
G1 X134.775 Y114.775 F18000
M73 P21 R10
M204 P1500
;TYPE:External perimeter
G1 F1154
G1 X115.225 Y114.775 E.66174
G1 X115.225 Y95.225 E.66174
G1 X134.775 Y95.225 E.66174
G1 X134.775 Y114.715 E.65971
M204 P2500
G1 X134.379 Y114.774 F18000
;LAYER_CHANGE
;Z:4.4
;HEIGHT:0.2
;BEFORE_LAYER_CHANGE
G92 E0.0
;4.4
M201 X3999.65 Y3999.65

G1 X134.379 Y114.774 Z4.2 F720
G1 X134.368 Y114.368 Z4.4 F2125
;AFTER_LAYER_CHANGE
;4.4
M74 W0.325865

G1 X134.368 Y114.368 F18000
G1 Z4.4 F720
;TYPE:Perimeter
G1 F1154
