;FLAVOR:Marlin
;TIME:7659
;Filament used: 4.52007m
;Layer height: 0.2
;MINX:57.843
;MINY:60.374
;MINZ:0.2
;MAXX:177.157
;MAXY:174.626
;MAXZ:80.112
;Generated with Cura_SteamEngine 4.6.1
M140 S50
M105
M190 S50
M104 S200
M105
M109 S200
M82 ;absolute extrusion mode
; Ender 3 Custom Start G-code
G92 E0 ; Reset Extruder
G28 ; Home all axes
G1 Z2.0 F3000 ; Move Z Axis up little to prevent scratching of Heat Bed
G1 X0.1 Y20 Z0.3 F5000.0 ; Move to start position
G1 X0.1 Y200.0 Z0.3 F1500.0 E15 ; Draw the first line
G1 X0.4 Y200.0 Z0.3 F5000.0 ; Move to side a little
G1 X0.4 Y20 Z0.3 F1500.0 E30 ; Draw the second line
G92 E0 ; Reset Extruder
G1 Z2.0 F3000 ; Move Z Axis up little to prevent scratching of Heat Bed
G1 X5 Y20 Z0.3 F5000.0 ; Move over to prevent blob squish
G92 E0
G92 E0
;LAYER_COUNT:400
;LAYER:0
M107
G0 F6000 X124.024 Y78.698 Z0.2
;TYPE:SKIRT
G1 F1200 X125.137 Y78.872 E0.03747
G1 X126.779 Y79.226 E0.09334
G1 X129.251 Y79.719 E0.17717
G1 X131.728 Y80.143 E0.26076
G1 X132.168 Y80.228 E0.27566
G1 X133.044 Y80.449 E0.30571
G1 X133.897 Y80.746 E0.33575
G1 X134.72 Y81.118 E0.36579
G1 X135.213 Y81.385 E0.38444
G1 X137.564 Y82.742 E0.47473
G1 X138.325 Y83.228 E0.50476
G1 X139.041 Y83.779 E0.53481
G1 X139.705 Y84.391 E0.56484
G1 X140.312 Y85.059 E0.59486
G1 X140.908 Y85.853 E0.62788
G1 X141.254 Y86.366 E0.64846
G1 X142.241 Y87.869 E0.70827
G1 X143.712 Y89.974 E0.79368
G1 X145.212 Y91.998 E0.87747
G1 X146.785 Y93.998 E0.9621
G1 X148.403 Y95.94 E1.04617
G1 X150.102 Y97.866 E1.1316
G1 X151.658 Y99.536 E1.20751
G1 X152.244 Y100.224 E1.23757
G1 X152.803 Y101.016 E1.26981
G1 X153.273 Y101.755 E1.29894
G1 X153.563 Y102.241 E1.31777
G1 X153.951 Y102.933 E1.34415
G1 X154.357 Y103.739 E1.37417
G1 X154.755 Y104.769 E1.4109
G1 X155.15 Y105.986 E1.45345
G1 X156.003 Y108.528 E1.54263
G1 X156.995 Y111.219 E1.63802
G1 X157.269 Y112.079 E1.66804
G1 X157.467 Y112.961 E1.69811
G1 X157.585 Y113.856 E1.72814
G1 X157.624 Y114.668 E1.75517
G1 X157.635 Y116.105 E1.80297
G1 X157.635 Y117.492 E1.8491
G1 X157.595 Y118.394 E1.87913
G1 X157.475 Y119.289 E1.90917
G1 X157.277 Y120.17 E1.9392
G1 X157.002 Y121.03 E1.96923
G1 X156.658 Y121.849 E1.99878
G1 X156.433 Y122.319 E2.01611
G1 X155.5 Y124.178 E2.08529
G1 X154.428 Y126.474 E2.16957
G1 X153.422 Y128.798 E2.25379
G1 X152.463 Y131.191 E2.33954
G1 X151.611 Y133.518 E2.42196
G1 X150.798 Y135.94 E2.50693
G1 X150.105 Y138.209 E2.58584
G1 X149.803 Y139.06 E2.61588
G1 X149.25 Y140.211 E2.65835
G1 X148.714 Y141.16 E2.6946
G1 X148.336 Y141.794 E2.71915
G1 X147.84 Y142.549 E2.74919
G1 X147.161 Y143.389 E2.78512
G1 X146.262 Y144.389 E2.82984
G1 X144.499 Y146.386 E2.91844
G1 X142.77 Y148.467 E3.00843
G1 X142.281 Y149.014 E3.03283
G1 X142.16 Y149.14 E3.03864
G1 X141.506 Y149.763 E3.06869
G1 X140.8 Y150.326 E3.09872
G1 X139.904 Y150.908 E3.13426
G1 X137.573 Y152.254 E3.22378
G1 X136.771 Y152.671 E3.25385
G1 X135.936 Y153.015 E3.28388
G1 X135.074 Y153.284 E3.31392
G1 X134.191 Y153.475 E3.34397
G1 X133.189 Y153.596 E3.37753
G1 X132.442 Y153.647 E3.40244
G1 X130.995 Y153.727 E3.45064
G1 X128.481 Y153.938 E3.53455
G1 X125.945 Y154.223 E3.61943
G1 X123.446 Y154.575 E3.70336
G1 X120.901 Y155.008 E3.78923
G1 X118.445 Y155.498 E3.87253
G1 X115.874 Y156.087 E3.96025
G1 X114.985 Y156.25 E3.99031
G1 X113.849 Y156.342 E4.02822
G1 X113.126 Y156.36 E4.05228
G1 X112.756 Y156.362 E4.06458
G1 X111.877 Y156.352 E4.09382
G1 X110.975 Y156.302 E4.12387
G1 X109.836 Y156.122 E4.16222
G1 X108.298 Y155.789 E4.21456
G1 X105.749 Y155.281 E4.30101
G1 X103.272 Y154.857 E4.38459
G1 X102.832 Y154.772 E4.39949
G1 X101.956 Y154.551 E4.42954
G1 X101.103 Y154.254 E4.45958
G1 X100.28 Y153.882 E4.48962
G1 X99.787 Y153.615 E4.50827
G1 X97.436 Y152.258 E4.59856
G1 X96.675 Y151.772 E4.62859
G1 X95.959 Y151.221 E4.65864
G1 X95.295 Y150.609 E4.68867
G1 X94.688 Y149.941 E4.71869
G1 X94.089 Y149.143 E4.75188
G1 X93.729 Y148.61 E4.77327
G1 X92.742 Y147.107 E4.83308
G1 X91.288 Y145.027 E4.91749
G1 X89.774 Y142.984 E5.00206
G1 X88.226 Y141.015 E5.08537
G1 X86.572 Y139.03 E5.1713
G1 X84.914 Y137.151 E5.25465
G1 X83.342 Y135.464 E5.33135
G1 X82.756 Y134.776 E5.3614
G1 X82.197 Y133.984 E5.39365
G1 X81.727 Y133.245 E5.42278
G1 X81.439 Y132.764 E5.44142
G1 X81.05 Y132.071 E5.46785
G1 X80.644 Y131.264 E5.4979
G1 X80.243 Y130.226 E5.53491
G1 X79.85 Y129.014 E5.57729
G1 X78.997 Y126.472 E5.66647
G1 X78.005 Y123.781 E5.76186
G1 X77.731 Y122.921 E5.79188
G1 X77.533 Y122.039 E5.82195
G1 X77.415 Y121.144 E5.85197
G1 X77.376 Y120.332 E5.87901
G1 X77.365 Y118.895 E5.92681
G1 X77.365 Y117.507 E5.97297
G1 X77.405 Y116.605 E6.003
G1 X77.525 Y115.71 E6.03304
G1 X77.723 Y114.829 E6.06307
G1 X77.998 Y113.969 E6.0931
G1 X78.349 Y113.136 E6.12316
G1 X78.567 Y112.681 E6.13994
G1 X79.5 Y110.822 E6.20913
G1 X80.572 Y108.526 E6.2934
G1 X81.578 Y106.202 E6.37763
G1 X82.537 Y103.809 E6.46338
G1 X83.389 Y101.482 E6.5458
G1 X84.205 Y99.051 E6.63109
G1 X84.895 Y96.791 E6.70968
G1 X85.197 Y95.94 E6.73971
G1 X85.753 Y94.782 E6.78244
G1 X86.289 Y93.835 E6.81863
G1 X86.674 Y93.19 E6.84361
G1 X87.17 Y92.436 E6.87363
G1 X87.856 Y91.588 E6.90991
G1 X88.809 Y90.531 E6.95725
G1 X90.501 Y88.614 E7.04229
G1 X92.23 Y86.533 E7.13228
G1 X92.719 Y85.986 E7.15668
G1 X92.84 Y85.86 E7.16249
G1 X93.494 Y85.237 E7.19253
G1 X94.2 Y84.674 E7.22257
G1 X95.098 Y84.091 E7.25818
G1 X97.43 Y82.745 E7.34773
G1 X98.231 Y82.329 E7.37775
G1 X99.067 Y81.985 E7.40782
G1 X99.929 Y81.716 E7.43785
G1 X100.811 Y81.525 E7.46787
G1 X101.811 Y81.404 E7.50137
G1 X102.558 Y81.353 E7.52627
G1 X104.005 Y81.273 E7.57447
G1 X106.519 Y81.062 E7.65838
G1 X109.055 Y80.777 E7.74326
G1 X111.554 Y80.425 E7.8272
G1 X114.099 Y79.992 E7.91306
G1 X116.555 Y79.502 E7.99636
G1 X119.126 Y78.913 E8.08409
G1 X120.015 Y78.75 E8.11415
G1 X121.151 Y78.658 E8.15206
G1 X121.875 Y78.64 E8.17614
G1 X122.245 Y78.638 E8.18845
G1 X123.122 Y78.648 E8.21762
G1 X124.024 Y78.698 E8.24767
G0 F6000 X124.046 Y78.298
G1 F1200 X125.221 Y78.481 E8.28722
G1 X126.882 Y78.839 E8.34373
G1 X129.318 Y79.325 E8.42635
G1 X131.796 Y79.749 E8.50997
G1 X132.249 Y79.836 E8.52531
G1 X133.142 Y80.061 E8.55594
G1 X134.012 Y80.362 E8.58656
G1 X134.852 Y80.737 E8.61716
G1 X135.413 Y81.039 E8.63835
G1 X137.764 Y82.396 E8.72863
G1 X138.541 Y82.89 E8.75926
G1 X139.271 Y83.45 E8.78986
G1 X139.951 Y84.071 E8.82049
G1 X140.574 Y84.749 E8.85111
G1 X141.24 Y85.629 E8.88782
G1 X141.589 Y86.146 E8.90856
G1 X142.588 Y87.666 E8.96906
G1 X144.029 Y89.729 E9.05276
G1 X145.533 Y91.758 E9.13676
G1 X147.108 Y93.761 E9.22151
G1 X148.721 Y95.697 E9.30532
G1 X150.377 Y97.574 E9.38857
G1 X151.951 Y99.263 E9.46536
G1 X152.549 Y99.964 E9.49601
G1 X153.14 Y100.801 E9.53009
G1 X153.61 Y101.54 E9.55922
G1 X153.912 Y102.045 E9.57879
G1 X154.3 Y102.737 E9.60518
G1 X154.715 Y103.559 E9.6358
G1 X155.135 Y104.645 E9.67453
G1 X155.529 Y105.859 E9.71698
G1 X156.382 Y108.4 E9.80613
G1 X157.37 Y111.081 E9.90116
G1 X157.651 Y111.958 E9.93179
G1 X157.854 Y112.855 E9.96238
G1 X157.979 Y113.768 E9.99303
G1 X158.024 Y114.665 E10.0229
G1 X158.035 Y116.102 E10.0707
G1 X158.035 Y117.492 E10.11693
G1 X157.995 Y118.412 E10.14756
G1 X157.875 Y119.325 E10.17819
G1 X157.677 Y120.224 E10.2088
G1 X157.401 Y121.102 E10.23941
G1 X157.019 Y122.02 E10.27249
G1 X156.79 Y122.498 E10.29011
G1 X155.877 Y124.319 E10.35787
G1 X154.787 Y126.652 E10.44351
G1 X153.797 Y128.939 E10.5264
G1 X152.839 Y131.329 E10.61204
G1 X151.979 Y133.679 E10.69527
G1 X151.177 Y136.069 E10.77912
G1 X150.487 Y138.326 E10.85762
G1 X150.18 Y139.194 E10.88824
G1 X149.599 Y140.407 E10.93297
G1 X149.058 Y141.365 E10.96957
G1 X148.68 Y141.999 E10.99412
G1 X148.174 Y142.769 E11.02476
G1 X147.459 Y143.657 E11.06268
G1 X146.5 Y144.724 E11.1104
G1 X144.794 Y146.657 E11.19615
G1 X143.078 Y148.722 E11.28545
G1 X142.569 Y149.291 E11.31084
G1 X142.448 Y149.417 E11.31665
G1 X141.783 Y150.053 E11.34726
G1 X141.064 Y150.628 E11.37788
G1 X140.104 Y151.255 E11.41601
G1 X137.773 Y152.601 E11.50554
G1 X136.956 Y153.026 E11.53617
G1 X136.106 Y153.379 E11.56678
G1 X135.228 Y153.656 E11.5974
G1 X134.329 Y153.857 E11.62804
G1 X133.217 Y153.995 E11.66531
G1 X132.464 Y154.047 E11.69042
G1 X131.014 Y154.128 E11.73872
G1 X128.526 Y154.336 E11.82176
G1 X125.974 Y154.623 E11.90717
G1 X123.497 Y154.972 E11.99037
G1 X121.016 Y155.394 E12.07408
G1 X118.5 Y155.895 E12.1594
G1 X115.963 Y156.477 E12.24597
G1 X115.058 Y156.644 E12.27658
G1 X113.859 Y156.742 E12.31659
G1 X113.136 Y156.76 E12.34065
G1 X112.751 Y156.762 E12.35345
G1 X111.872 Y156.752 E12.38269
G1 X110.953 Y156.702 E12.4133
G1 X109.752 Y156.513 E12.45374
G1 X108.202 Y156.178 E12.50648
G1 X105.682 Y155.675 E12.59195
G1 X103.204 Y155.251 E12.67557
G1 X102.751 Y155.164 E12.69091
G1 X101.858 Y154.939 E12.72154
G1 X100.988 Y154.638 E12.75216
G1 X100.148 Y154.263 E12.78276
G1 X99.587 Y153.961 E12.80395
G1 X97.236 Y152.604 E12.89423
G1 X96.459 Y152.11 E12.92486
G1 X95.729 Y151.55 E12.95546
G1 X95.049 Y150.929 E12.98609
G1 X94.426 Y150.251 E13.01671
G1 X93.758 Y149.367 E13.05356
G1 X93.395 Y148.829 E13.07515
G1 X92.423 Y147.35 E13.13401
G1 X90.967 Y145.265 E13.2186
G1 X89.471 Y143.247 E13.30215
G1 X87.906 Y141.256 E13.38638
G1 X86.263 Y139.285 E13.47172
G1 X84.623 Y137.426 E13.55417
G1 X83.049 Y135.737 E13.63096
G1 X82.451 Y135.036 E13.66161
G1 X81.86 Y134.199 E13.69569
G1 X81.39 Y133.46 E13.72482
G1 X81.091 Y132.96 E13.74419
G1 X80.702 Y132.267 E13.77063
G1 X80.286 Y131.445 E13.80127
G1 X79.862 Y130.349 E13.84035
G1 X79.437 Y129.039 E13.88616
G1 X78.618 Y126.6 E13.97173
G1 X77.63 Y123.919 E14.06677
G1 X77.349 Y123.042 E14.0974
G1 X77.146 Y122.145 E14.12798
G1 X77.021 Y121.232 E14.15863
G1 X76.976 Y120.335 E14.18851
G1 X76.965 Y118.898 E14.2363
G1 X76.965 Y117.507 E14.28257
G1 X77.005 Y116.587 E14.3132
G1 X77.125 Y115.674 E14.34382
G1 X77.323 Y114.775 E14.37444
G1 X77.599 Y113.897 E14.40505
G1 X77.988 Y112.964 E14.43867
G1 X78.21 Y112.502 E14.45572
G1 X79.123 Y110.681 E14.52347
G1 X80.213 Y108.348 E14.60912
G1 X81.203 Y106.061 E14.69201
G1 X82.161 Y103.671 E14.77765
G1 X83.021 Y101.321 E14.86088
G1 X83.819 Y98.945 E14.94424
G1 X84.512 Y96.675 E15.02318
G1 X84.819 Y95.807 E15.05381
G1 X85.404 Y94.587 E15.09881
G1 X85.945 Y93.63 E15.13537
G1 X86.33 Y92.985 E15.16035
G1 X86.836 Y92.216 E15.19097
G1 X87.559 Y91.32 E15.22927
G1 X88.483 Y90.295 E15.27516
G1 X90.206 Y88.344 E15.36174
G1 X91.922 Y86.278 E15.45106
G1 X92.431 Y85.709 E15.47646
G1 X92.552 Y85.583 E15.48227
G1 X93.217 Y84.947 E15.51287
G1 X93.936 Y84.372 E15.54349
G1 X94.898 Y83.744 E15.5817
G1 X97.23 Y82.398 E15.67126
G1 X98.047 Y81.973 E15.70189
G1 X98.897 Y81.621 E15.73249
G1 X99.775 Y81.343 E15.76312
G1 X100.674 Y81.143 E15.79375
G1 X101.783 Y81.005 E15.83092
G1 X102.536 Y80.953 E15.85603
G1 X103.986 Y80.872 E15.90433
G1 X106.474 Y80.664 E15.98737
G1 X109.026 Y80.377 E16.07278
G1 X111.503 Y80.028 E16.15598
G1 X113.984 Y79.606 E16.23969
G1 X116.5 Y79.105 E16.32501
G1 X119.037 Y78.523 E16.41158
G1 X119.942 Y78.356 E16.44219
G1 X121.142 Y78.258 E16.48224
G1 X121.866 Y78.24 E16.50633
G1 X122.25 Y78.238 E16.5191
G1 X123.127 Y78.248 E16.54827
G1 X124.046 Y78.298 E16.57888
G0 F6000 X124.068 Y77.898
G1 F1200 X125.304 Y78.09 E16.62048
G1 X126.939 Y78.442 E16.67611
G1 X129.435 Y78.939 E16.76076
G1 X131.863 Y79.355 E16.84269
G1 X132.329 Y79.444 E16.85847
G1 X133.239 Y79.672 E16.88967
G1 X134.126 Y79.977 E16.92087
G1 X134.984 Y80.356 E16.95206
G1 X135.613 Y80.692 E16.97578
G1 X137.964 Y82.049 E17.06607
G1 X138.755 Y82.552 E17.09725
G1 X139.501 Y83.121 E17.12845
G1 X140.196 Y83.751 E17.15965
G1 X140.834 Y84.438 E17.19083
G1 X141.571 Y85.405 E17.23127
G1 X141.923 Y85.926 E17.25219
G1 X142.917 Y87.439 E17.3124
G1 X144.362 Y89.508 E17.39633
G1 X145.853 Y91.519 E17.4796
G1 X147.414 Y93.504 E17.56359
G1 X149.012 Y95.422 E17.64662
G1 X150.704 Y97.339 E17.73166
G1 X152.243 Y98.991 E17.80676
G1 X152.853 Y99.704 E17.83797
G1 X153.478 Y100.587 E17.87395
G1 X153.948 Y101.326 E17.90308
G1 X154.261 Y101.849 E17.92335
G1 X154.649 Y102.541 E17.94974
G1 X155.072 Y103.378 E17.98093
G1 X155.516 Y104.522 E18.02174
G1 X155.935 Y105.811 E18.06682
G1 X156.76 Y108.27 E18.15309
G1 X157.745 Y110.942 E18.24781
G1 X158.032 Y111.835 E18.27901
G1 X158.241 Y112.75 E18.31022
G1 X158.372 Y113.678 E18.34139
G1 X158.424 Y114.662 E18.37417
G1 X158.435 Y116.099 E18.42196
G1 X158.435 Y117.492 E18.4683
G1 X158.395 Y118.429 E18.49949
G1 X158.275 Y119.359 E18.53068
G1 X158.077 Y120.276 E18.56188
G1 X157.801 Y121.172 E18.59306
G1 X157.381 Y122.191 E18.62972
G1 X157.148 Y122.677 E18.64765
G1 X156.225 Y124.517 E18.71611
G1 X155.158 Y126.802 E18.79999
G1 X154.163 Y129.098 E18.88322
G1 X153.217 Y131.46 E18.96785
G1 X152.35 Y133.827 E19.05169
G1 X151.566 Y136.164 E19.13367
G1 X150.87 Y138.443 E19.21293
G1 X150.558 Y139.327 E19.24411
G1 X150.172 Y140.182 E19.27531
G1 X149.948 Y140.602 E19.29114
G1 X149.401 Y141.57 E19.32812
G1 X149.023 Y142.204 E19.35267
G1 X148.509 Y142.988 E19.38385
G1 X147.756 Y143.924 E19.42381
G1 X146.797 Y144.991 E19.47152
G1 X145.118 Y146.892 E19.55588
G1 X143.386 Y148.978 E19.64606
G1 X142.858 Y149.568 E19.67239
G1 X142.737 Y149.694 E19.6782
G1 X142.059 Y150.342 E19.7094
G1 X141.329 Y150.93 E19.74058
G1 X140.304 Y151.601 E19.78132
G1 X137.973 Y152.947 E19.87085
G1 X137.141 Y153.381 E19.90206
G1 X136.276 Y153.742 E19.93323
G1 X135.383 Y154.029 E19.96443
G1 X134.469 Y154.238 E19.99562
G1 X133.245 Y154.394 E20.03666
G1 X132.486 Y154.446 E20.06196
G1 X131.072 Y154.525 E20.10906
G1 X128.529 Y154.737 E20.19394
G1 X126.042 Y155.017 E20.27718
G1 X123.549 Y155.369 E20.36092
G1 X121.09 Y155.787 E20.44388
G1 X118.604 Y156.282 E20.52819
G1 X116.053 Y156.867 E20.61523
G1 X115.13 Y157.037 E20.64645
G1 X113.869 Y157.142 E20.68854
G1 X113.146 Y157.16 E20.71259
G1 X112.747 Y157.162 E20.72586
G1 X111.868 Y157.152 E20.7551
G1 X110.931 Y157.102 E20.78631
G1 X109.667 Y156.904 E20.82886
G1 X108.164 Y156.579 E20.88001
G1 X105.565 Y156.061 E20.96815
G1 X103.137 Y155.645 E21.05008
G1 X102.671 Y155.556 E21.06586
G1 X101.761 Y155.328 E21.09706
G1 X100.874 Y155.023 E21.12826
G1 X100.016 Y154.644 E21.15946
G1 X99.387 Y154.308 E21.18318
G1 X97.036 Y152.951 E21.27346
G1 X96.245 Y152.448 E21.30464
G1 X95.499 Y151.879 E21.33585
G1 X94.804 Y151.249 E21.36705
G1 X94.166 Y150.562 E21.39823
G1 X93.427 Y149.591 E21.43881
G1 X93.06 Y149.049 E21.46058
G1 X92.077 Y147.553 E21.52012
G1 X90.65 Y145.51 E21.60301
G1 X89.133 Y143.464 E21.68772
G1 X87.6 Y141.514 E21.77022
G1 X85.972 Y139.56 E21.85481
G1 X84.296 Y137.661 E21.93905
G1 X82.757 Y136.009 E22.01415
G1 X82.147 Y135.296 E22.04536
G1 X81.522 Y134.413 E22.08134
G1 X81.052 Y133.674 E22.11047
G1 X80.742 Y133.155 E22.13058
G1 X80.353 Y132.462 E22.15701
G1 X79.929 Y131.626 E22.18818
G1 X79.482 Y130.473 E22.22931
G1 X79.074 Y129.215 E22.2733
G1 X78.24 Y126.73 E22.36048
G1 X77.255 Y124.058 E22.4552
G1 X76.968 Y123.165 E22.4864
G1 X76.759 Y122.25 E22.51762
G1 X76.628 Y121.322 E22.54879
G1 X76.576 Y120.338 E22.58156
G1 X76.565 Y118.901 E22.62936
G1 X76.565 Y117.507 E22.67572
G1 X76.605 Y116.57 E22.70691
G1 X76.725 Y115.64 E22.7381
G1 X76.923 Y114.723 E22.76931
G1 X77.199 Y113.827 E22.80049
G1 X77.626 Y112.793 E22.8377
G1 X77.852 Y112.323 E22.85504
G1 X78.775 Y110.483 E22.92351
G1 X79.842 Y108.198 E23.00739
G1 X80.837 Y105.902 E23.09061
G1 X81.783 Y103.54 E23.17524
G1 X82.65 Y101.173 E23.25908
G1 X83.44 Y98.816 E23.34176
G1 X84.13 Y96.558 E23.42029
G1 X84.442 Y95.673 E23.4515
G1 X84.828 Y94.819 E23.48267
G1 X85.055 Y94.391 E23.49879
G1 X85.602 Y93.425 E23.53571
G1 X85.987 Y92.78 E23.56069
G1 X86.501 Y91.996 E23.59187
G1 X87.262 Y91.052 E23.6322
G1 X88.185 Y90.028 E23.67806
G1 X89.897 Y88.089 E23.76409
G1 X91.614 Y86.022 E23.85346
G1 X92.142 Y85.432 E23.8798
G1 X92.263 Y85.306 E23.88561
G1 X92.941 Y84.658 E23.9168
G1 X93.671 Y84.07 E23.94798
G1 X94.698 Y83.398 E23.9888
G1 X97.03 Y82.052 E24.07835
G1 X97.862 Y81.618 E24.10956
G1 X98.727 Y81.257 E24.14074
G1 X99.62 Y80.971 E24.17193
G1 X100.534 Y80.761 E24.20312
G1 X101.754 Y80.606 E24.24402
G1 X102.514 Y80.554 E24.26936
G1 X103.928 Y80.475 E24.31646
G1 X106.471 Y80.263 E24.40133
G1 X108.958 Y79.983 E24.48458
G1 X111.451 Y79.631 E24.56832
