;FLAVOR:Marlin
;TIME:1255
;Filament used: 0.807986m
;Layer height: 0.2
;MINX:103.7
;MINY:103.7
;MINZ:0.2
;MAXX:131.3
;MAXY:131.3
;MAXZ:10
;Generated with Cura_SteamEngine 4.8.0
M140 S50
M105
M190 S50
M104 S200
M105
M109 S200
M82 ;absolute extrusion mode
; Ender 3 Custom Start G-code
G92 E0 ; Reset Extruder
G28 ; Home all axes
G1 Z2.0 F3000 ; Move Z Axis up little to prevent scratching of Heat Bed
G1 X0.1 Y20 Z0.3 F5000.0 ; Move to start position
G1 X0.1 Y200.0 Z0.3 F1500.0 E15 ; Draw the first line
G1 X0.4 Y200.0 Z0.3 F5000.0 ; Move to side a little
G1 X0.4 Y20 Z0.3 F1500.0 E30 ; Draw the second line
G92 E0 ; Reset Extruder
G1 Z2.0 F3000 ; Move Z Axis up little to prevent scratching of Heat Bed
G1 X5 Y20 Z0.3 F5000.0 ; Move over to prevent blob squish
G92 E0
G92 E0
G1 F2700 E-5
;LAYER_COUNT:50
;LAYER:0
M107
;MESH:eyepiece.stl
G0 F6000 X116.476 Y129.86 Z0.2
;TYPE:WALL-INNER
G1 F2700 E0
G1 F1200 X118.524 Y129.86 E0.06812
G1 X120.545 Y129.523 E0.13626
G1 X122.482 Y128.858 E0.20438
G1 X124.283 Y127.883 E0.2725
G1 X125.9 Y126.625 E0.34064
G1 X127.287 Y125.118 E0.40876
G1 X128.408 Y123.403 E0.4769
G1 X129.231 Y121.526 E0.54507
G1 X129.733 Y119.541 E0.61317
G1 X129.902 Y117.5 E0.68129
G1 X129.733 Y115.459 E0.7494
G1 X129.231 Y113.474 E0.8175
G1 X128.408 Y111.597 E0.88567
G1 X127.287 Y109.882 E0.95381
G1 X125.9 Y108.375 E1.02194
G1 X124.283 Y107.117 E1.09008
G1 X122.482 Y106.142 E1.15819
G1 X120.545 Y105.477 E1.22631
G1 X118.524 Y105.14 E1.29445
G1 X116.476 Y105.14 E1.36257
G1 X114.455 Y105.477 E1.43072
G1 X112.518 Y106.142 E1.49883
G1 X110.717 Y107.117 E1.56695
G1 X109.1 Y108.375 E1.63509
G1 X107.713 Y109.882 E1.70321
G1 X106.592 Y111.597 E1.77136
G1 X105.769 Y113.474 E1.83952
G1 X105.267 Y115.459 E1.90762
G1 X105.098 Y117.5 E1.97574
G1 X105.267 Y119.541 E2.04386
G1 X105.769 Y121.526 E2.11196
G1 X106.592 Y123.403 E2.18012
G1 X107.713 Y125.118 E2.24827
G1 X109.1 Y126.625 E2.31639
G1 X110.717 Y127.883 E2.38453
G1 X112.518 Y128.858 E2.45265
G1 X114.455 Y129.523 E2.52076
G1 X116.476 Y129.86 E2.58891
G0 F6000 X116.509 Y129.46
;TYPE:WALL-OUTER
G1 F1200 X118.491 Y129.46 E2.65483
G1 X120.446 Y129.134 E2.72075
G1 X122.321 Y128.49 E2.78669
G1 X124.064 Y127.547 E2.8526
G1 X125.628 Y126.33 E2.91852
G1 X126.97 Y124.871 E2.98445
G1 X128.055 Y123.212 E3.05038
G1 X128.851 Y121.396 E3.11633
G1 X129.337 Y119.475 E3.18223
G1 X129.501 Y117.5 E3.24815
G1 X129.337 Y115.525 E3.31406
G1 X128.851 Y113.604 E3.37997
G1 X128.055 Y111.788 E3.44592
G1 X126.97 Y110.129 E3.51185
G1 X125.628 Y108.67 E3.57778
G1 X124.064 Y107.453 E3.64369
G1 X122.321 Y106.51 E3.70961
G1 X120.446 Y105.866 E3.77555
G1 X118.491 Y105.54 E3.84147
G1 X116.509 Y105.54 E3.90739
G1 X114.554 Y105.866 E3.97331
G1 X112.679 Y106.51 E4.03925
G1 X110.936 Y107.453 E4.10516
G1 X109.372 Y108.67 E4.17107
G1 X108.03 Y110.129 E4.23701
G1 X106.945 Y111.788 E4.30294
G1 X106.149 Y113.604 E4.36889
G1 X105.663 Y115.525 E4.43479
G1 X105.499 Y117.5 E4.50071
G1 X105.663 Y119.475 E4.56662
G1 X106.149 Y121.396 E4.63253
G1 X106.945 Y123.212 E4.69847
G1 X108.03 Y124.871 E4.76441
G1 X109.372 Y126.33 E4.83034
G1 X110.936 Y127.547 E4.89625
G1 X112.679 Y128.49 E4.96216
G1 X114.554 Y129.134 E5.0281
G1 X116.509 Y129.46 E5.09402
G0 F6000 X116.473 Y129.898
G0 X117.5 Y130.05
G0 X117.452 Y130.704
G0 X117.5 Y130.899
;TYPE:WALL-INNER
G1 F1200 X115.596 Y130.763 E5.15751
G1 X113.726 Y130.356 E5.22117
G1 X111.937 Y129.689 E5.28467
G1 X110.253 Y128.769 E5.34849
G1 X108.724 Y127.624 E5.41203
G1 X107.376 Y126.276 E5.47543
G1 X106.231 Y124.747 E5.53897
G1 X105.311 Y123.063 E5.60279
G1 X104.644 Y121.274 E5.66629
G1 X104.237 Y119.404 E5.72994
G1 X104.101 Y117.5 E5.79343
G1 X104.237 Y115.596 E5.85692
G1 X104.644 Y113.726 E5.92057
G1 X105.311 Y111.937 E5.98408
G1 X106.231 Y110.253 E6.0479
G1 X107.376 Y108.724 E6.11143
G1 X108.724 Y107.376 E6.17484
G1 X110.253 Y106.231 E6.23837
G1 X111.937 Y105.311 E6.3022
G1 X113.726 Y104.644 E6.3657
G1 X115.596 Y104.237 E6.42935
G1 X117.5 Y104.101 E6.49284
G1 X119.404 Y104.237 E6.55633
G1 X121.274 Y104.644 E6.61998
G1 X123.063 Y105.311 E6.68349
G1 X124.747 Y106.231 E6.74731
G1 X126.276 Y107.376 E6.81084
G1 X127.624 Y108.724 E6.87425
G1 X128.769 Y110.253 E6.93778
G1 X129.689 Y111.937 E7.00161
G1 X130.356 Y113.726 E7.06511
G1 X130.763 Y115.596 E7.12876
G1 X130.899 Y117.5 E7.19225
G1 X130.763 Y119.404 E7.25574
G1 X130.356 Y121.274 E7.31939
G1 X129.689 Y123.063 E7.3829
G1 X128.769 Y124.747 E7.44672
G1 X127.624 Y126.276 E7.51025
G1 X126.276 Y127.624 E7.57366
G1 X124.747 Y128.769 E7.63719
G1 X123.063 Y129.689 E7.70102
G1 X121.274 Y130.356 E7.76452
G1 X119.404 Y130.763 E7.82817
G1 X117.5 Y130.899 E7.89166
G0 F6000 X117.5 Y131.3
;TYPE:WALL-OUTER
G1 F1200 X115.538 Y131.16 E7.95708
G1 X113.612 Y130.741 E8.02264
G1 X111.772 Y130.055 E8.08795
G1 X110.037 Y129.107 E8.15371
G1 X108.46 Y127.926 E8.21924
G1 X107.074 Y126.54 E8.28444
G1 X105.893 Y124.963 E8.34996
G1 X104.945 Y123.228 E8.41572
G1 X104.259 Y121.388 E8.48104
G1 X103.84 Y119.462 E8.54659
G1 X103.7 Y117.5 E8.61202
G1 X103.84 Y115.538 E8.67744
G1 X104.259 Y113.612 E8.743
G1 X104.945 Y111.772 E8.80831
G1 X105.893 Y110.037 E8.87407
G1 X107.074 Y108.46 E8.9396
G1 X108.46 Y107.074 E9.00479
G1 X110.037 Y105.893 E9.07032
G1 X111.772 Y104.945 E9.13608
G1 X113.612 Y104.259 E9.20139
G1 X115.538 Y103.84 E9.26695
G1 X117.5 Y103.7 E9.33237
G1 X119.462 Y103.84 E9.39779
G1 X121.388 Y104.259 E9.46335
G1 X123.228 Y104.945 E9.52866
G1 X124.963 Y105.893 E9.59442
G1 X126.54 Y107.074 E9.65995
G1 X127.926 Y108.46 E9.72515
G1 X129.107 Y110.037 E9.79067
G1 X130.055 Y111.772 E9.85643
G1 X130.741 Y113.612 E9.92175
G1 X131.16 Y115.538 E9.9873
G1 X131.3 Y117.5 E10.05273
G1 X131.16 Y119.462 E10.11815
G1 X130.741 Y121.388 E10.18371
G1 X130.055 Y123.228 E10.24902
G1 X129.107 Y124.963 E10.31478
G1 X127.926 Y126.54 E10.38031
G1 X126.54 Y127.926 E10.4455
G1 X124.963 Y129.107 E10.51103
G1 X123.228 Y130.055 E10.57679
G1 X121.388 Y130.741 E10.6421
G1 X119.462 Y131.16 E10.70766
G1 X117.5 Y131.3 E10.77308
G0 F6000 X117.5 Y130.86
G0 X117.5 Y130.508
;TYPE:SKIN
G1 F1200 X115.651 Y130.376 E10.83474
G1 X113.833 Y129.98 E10.89662
G1 X112.106 Y129.337 E10.95791
G1 X110.461 Y128.437 E11.02028
G1 X108.974 Y127.324 E11.08206
G1 X107.676 Y126.026 E11.14311
G1 X106.563 Y124.539 E11.20489
G1 X105.663 Y122.894 E11.26726
G1 X105.02 Y121.167 E11.32855
G1 X104.624 Y119.349 E11.39043
G1 X104.492 Y117.5 E11.45209
G1 X104.624 Y115.651 E11.51374
G1 X105.02 Y113.833 E11.57563
G1 X105.663 Y112.106 E11.63692
G1 X106.563 Y110.461 E11.69928
G1 X107.676 Y108.974 E11.76106
G1 X108.974 Y107.676 E11.82212
G1 X110.461 Y106.563 E11.88389
G1 X112.106 Y105.663 E11.94626
G1 X113.833 Y105.02 E12.00755
G1 X115.651 Y104.624 E12.06944
G1 X117.5 Y104.492 E12.13109
G1 X119.349 Y104.624 E12.19275
G1 X121.167 Y105.02 E12.25463
G1 X122.894 Y105.663 E12.31592
G1 X124.539 Y106.563 E12.37829
G1 X126.026 Y107.676 E12.44007
G1 X127.324 Y108.974 E12.50112
G1 X128.437 Y110.461 E12.5629
G1 X129.337 Y112.106 E12.62526
G1 X129.98 Y113.833 E12.68656
G1 X130.376 Y115.651 E12.74844
G1 X130.508 Y117.5 E12.8101
G1 X130.376 Y119.349 E12.87175
G1 X129.98 Y121.167 E12.93364
G1 X129.337 Y122.894 E12.99493
G1 X128.437 Y124.539 E13.05729
G1 X127.324 Y126.026 E13.11907
G1 X126.026 Y127.324 E13.18013
G1 X124.539 Y128.437 E13.2419
G1 X122.894 Y129.337 E13.30427
G1 X121.167 Y129.98 E13.36556
G1 X119.349 Y130.376 E13.42745
G1 X117.5 Y130.508 E13.4891
G0 F6000 X117.48 Y130.787
G0 X116.419 Y130.63
G0 X116.46 Y130.051
G0 X116.443 Y130.25
G1 F1200 X118.557 Y130.25 E13.55941
G1 X120.641 Y129.903 E13.62968
G1 X122.64 Y129.217 E13.69997
G1 X124.497 Y128.211 E13.77022
G1 X126.165 Y126.913 E13.84052
G1 X127.595 Y125.358 E13.91078
G1 X128.752 Y123.59 E13.98106
G1 X129.601 Y121.653 E14.0514
G1 X130.119 Y119.605 E14.12166
G1 X130.294 Y117.5 E14.19191
G1 X130.119 Y115.395 E14.26217
G1 X129.601 Y113.347 E14.33243
G1 X128.752 Y111.41 E14.40277
G1 X127.595 Y109.642 E14.47305
G1 X126.165 Y108.087 E14.54331
G1 X124.497 Y106.789 E14.61361
G1 X122.64 Y105.783 E14.68385
G1 X120.641 Y105.097 E14.75415
G1 X118.557 Y104.75 E14.82441
G1 X116.443 Y104.75 E14.89473
G1 X114.359 Y105.097 E14.96499
G1 X112.36 Y105.783 E15.03529
G1 X110.503 Y106.789 E15.10553
G1 X108.835 Y108.087 E15.17583
G1 X107.405 Y109.642 E15.24609
G1 X106.248 Y111.41 E15.31637
G1 X105.399 Y113.347 E15.38671
G1 X104.881 Y115.395 E15.45697
G1 X104.706 Y117.5 E15.52723
G1 X104.881 Y119.605 E15.59748
G1 X105.399 Y121.653 E15.66774
G1 X106.248 Y123.59 E15.73808
G1 X107.405 Y125.358 E15.80836
G1 X108.835 Y126.913 E15.87863
G1 X110.503 Y128.211 E15.94892
G1 X112.36 Y129.217 E16.01917
G1 X114.359 Y129.903 E16.08946
G1 X116.443 Y130.25 E16.15973
G0 F6000 X116.46 Y130.058
;MESH:NONMESH
G0 F300 X116.46 Y130.058 Z0.4
G0 F6000 X116.476 Y129.86
;TIME_ELAPSED:29.446293
;LAYER:1
M106 S85
;TYPE:WALL-INNER
;MESH:eyepiece.stl
G1 F1200 X118.524 Y129.86 E16.22784
G1 X120.545 Y129.523 E16.29599
G1 X122.482 Y128.858 E16.36411
G1 X124.283 Y127.883 E16.43222
G1 X125.9 Y126.625 E16.50036
G1 X127.287 Y125.118 E16.56849
G1 X128.408 Y123.403 E16.63663
G1 X129.231 Y121.526 E16.7048
G1 X129.733 Y119.541 E16.7729
G1 X129.902 Y117.5 E16.84101
G1 X129.733 Y115.459 E16.90913
G1 X129.231 Y113.474 E16.97723
G1 X128.408 Y111.597 E17.0454
G1 X127.287 Y109.882 E17.11354
G1 X125.9 Y108.375 E17.18166
G1 X124.283 Y107.117 E17.2498
G1 X122.482 Y106.142 E17.31792
G1 X120.545 Y105.477 E17.38604
G1 X118.524 Y105.14 E17.45418
G1 X116.476 Y105.14 E17.5223
G1 X114.455 Y105.477 E17.59045
G1 X112.518 Y106.142 E17.65856
G1 X110.717 Y107.117 E17.72668
G1 X109.1 Y108.375 E17.79482
G1 X107.713 Y109.882 E17.86294
G1 X106.592 Y111.597 E17.93109
G1 X105.769 Y113.474 E17.99925
G1 X105.267 Y115.459 E18.06735
G1 X105.098 Y117.5 E18.13547
G1 X105.267 Y119.541 E18.20358
G1 X105.769 Y121.526 E18.27168
G1 X106.592 Y123.403 E18.33985
G1 X107.713 Y125.118 E18.408
G1 X109.1 Y126.625 E18.47612
G1 X110.717 Y127.883 E18.54426
G1 X112.518 Y128.858 E18.61237
G1 X114.455 Y129.523 E18.68049
G1 X116.476 Y129.86 E18.74864
G0 F7500 X116.509 Y129.46
;TYPE:WALL-OUTER
G1 F1200 X118.491 Y129.46 E18.81456
G1 X120.446 Y129.134 E18.88048
G1 X122.321 Y128.49 E18.94642
G1 X124.064 Y127.547 E19.01233
G1 X125.628 Y126.33 E19.07824
G1 X126.97 Y124.871 E19.14418
G1 X128.055 Y123.212 E19.21011
G1 X128.851 Y121.396 E19.27606
G1 X129.337 Y119.475 E19.34196
G1 X129.501 Y117.5 E19.40788
G1 X129.337 Y115.525 E19.47379
G1 X128.851 Y113.604 E19.5397
G1 X128.055 Y111.788 E19.60565
G1 X126.97 Y110.129 E19.67158
G1 X125.628 Y108.67 E19.73751
G1 X124.064 Y107.453 E19.80342
G1 X122.321 Y106.51 E19.86933
G1 X120.446 Y105.866 E19.93527
G1 X118.491 Y105.54 E20.00119
G1 X116.509 Y105.54 E20.06712
G1 X114.554 Y105.866 E20.13304
G1 X112.679 Y106.51 E20.19898
G1 X110.936 Y107.453 E20.26489
G1 X109.372 Y108.67 E20.3308
G1 X108.03 Y110.129 E20.39673
G1 X106.945 Y111.788 E20.46267
G1 X106.149 Y113.604 E20.52861
G1 X105.663 Y115.525 E20.59452
G1 X105.499 Y117.5 E20.66043
G1 X105.663 Y119.475 E20.72635
G1 X106.149 Y121.396 E20.79225
G1 X106.945 Y123.212 E20.8582
G1 X108.03 Y124.871 E20.92413
G1 X109.372 Y126.33 E20.99007
G1 X110.936 Y127.547 E21.05598
G1 X112.679 Y128.49 E21.12189
G1 X114.554 Y129.134 E21.18783
G1 X116.509 Y129.46 E21.25375
G0 F7500 X116.473 Y129.898
G0 X117.5 Y130.05
G0 X117.452 Y130.704
G0 X117.5 Y130.899
;TYPE:WALL-INNER
G1 F1200 X115.596 Y130.763 E21.31724
G1 X113.726 Y130.356 E21.38089
G1 X111.937 Y129.689 E21.4444
G1 X110.253 Y128.769 E21.50822
G1 X108.724 Y127.624 E21.57175
G1 X107.376 Y126.276 E21.63516
G1 X106.231 Y124.747 E21.69869
G1 X105.311 Y123.063 E21.76252
G1 X104.644 Y121.274 E21.82602
G1 X104.237 Y119.404 E21.88967
G1 X104.101 Y117.5 E21.95316
G1 X104.237 Y115.596 E22.01665
G1 X104.644 Y113.726 E22.0803
G1 X105.311 Y111.937 E22.14381
G1 X106.231 Y110.253 E22.20763
G1 X107.376 Y108.724 E22.27116
G1 X108.724 Y107.376 E22.33457
G1 X110.253 Y106.231 E22.3981
G1 X111.937 Y105.311 E22.46193
G1 X113.726 Y104.644 E22.52543
G1 X115.596 Y104.237 E22.58908
G1 X117.5 Y104.101 E22.65257
G1 X119.404 Y104.237 E22.71606
G1 X121.274 Y104.644 E22.77971
G1 X123.063 Y105.311 E22.84321
G1 X124.747 Y106.231 E22.90704
G1 X126.276 Y107.376 E22.97057
G1 X127.624 Y108.724 E23.03398
G1 X128.769 Y110.253 E23.09751
G1 X129.689 Y111.937 E23.16133
G1 X130.356 Y113.726 E23.22484
G1 X130.763 Y115.596 E23.28849
G1 X130.899 Y117.5 E23.35198
G1 X130.763 Y119.404 E23.41547
G1 X130.356 Y121.274 E23.47912
G1 X129.689 Y123.063 E23.54262
G1 X128.769 Y124.747 E23.60645
G1 X127.624 Y126.276 E23.66998
G1 X126.276 Y127.624 E23.73339
G1 X124.747 Y128.769 E23.79692
G1 X123.063 Y129.689 E23.86074
G1 X121.274 Y130.356 E23.92425
G1 X119.404 Y130.763 E23.9879
G1 X117.5 Y130.899 E24.05139
G0 F7500 X117.5 Y131.3
;TYPE:WALL-OUTER
G1 F1200 X115.538 Y131.16 E24.11681
G1 X113.612 Y130.741 E24.18237
G1 X111.772 Y130.055 E24.24768
G1 X110.037 Y129.107 E24.31344
G1 X108.46 Y127.926 E24.37897
G1 X107.074 Y126.54 E24.44416
G1 X105.893 Y124.963 E24.50969
G1 X104.945 Y123.228 E24.57545
G1 X104.259 Y121.388 E24.64076
G1 X103.84 Y119.462 E24.70632
G1 X103.7 Y117.5 E24.77174
G1 X103.84 Y115.538 E24.83717
G1 X104.259 Y113.612 E24.90272
G1 X104.945 Y111.772 E24.96804
G1 X105.893 Y110.037 E25.0338
G1 X107.074 Y108.46 E25.09933
G1 X108.46 Y107.074 E25.16452
G1 X110.037 Y105.893 E25.23005
G1 X111.772 Y104.945 E25.29581
G1 X113.612 Y104.259 E25.36112
G1 X115.538 Y103.84 E25.42668
G1 X117.5 Y103.7 E25.4921
G1 X119.462 Y103.84 E25.55752
G1 X121.388 Y104.259 E25.62308
G1 X123.228 Y104.945 E25.68839
G1 X124.963 Y105.893 E25.75415
G1 X126.54 Y107.074 E25.81968
G1 X127.926 Y108.46 E25.88487
G1 X129.107 Y110.037 E25.9504
G1 X130.055 Y111.772 E26.01616
G1 X130.741 Y113.612 E26.08147
G1 X131.16 Y115.538 E26.14703
G1 X131.3 Y117.5 E26.21245
G1 X131.16 Y119.462 E26.27788
G1 X130.741 Y121.388 E26.34343
G1 X130.055 Y123.228 E26.40875
G1 X129.107 Y124.963 E26.47451
G1 X127.926 Y126.54 E26.54004
G1 X126.54 Y127.926 E26.60523
G1 X124.963 Y129.107 E26.67076
G1 X123.228 Y130.055 E26.73652
G1 X121.388 Y130.741 E26.80183
G1 X119.462 Y131.16 E26.86739
G1 X117.5 Y131.3 E26.93281
G0 F7500 X117.5 Y130.86
G0 X117.5 Y130.508
;TYPE:SKIN
G1 F1200 X115.651 Y130.376 E26.99446
G1 X113.833 Y129.98 E27.05635
G1 X112.106 Y129.337 E27.11764
G1 X110.461 Y128.437 E27.18001
G1 X108.974 Y127.324 E27.24179
G1 X107.676 Y126.026 E27.30284
G1 X106.563 Y124.539 E27.36462
G1 X105.663 Y122.894 E27.42698
G1 X105.02 Y121.167 E27.48828
G1 X104.624 Y119.349 E27.55016
G1 X104.492 Y117.5 E27.61181
G1 X104.624 Y115.651 E27.67347
G1 X105.02 Y113.833 E27.73535
G1 X105.663 Y112.106 E27.79665
G1 X106.563 Y110.461 E27.85901
G1 X107.676 Y108.974 E27.92079
G1 X108.974 Y107.676 E27.98184
G1 X110.461 Y106.563 E28.04362
G1 X112.106 Y105.663 E28.10599
G1 X113.833 Y105.02 E28.16728
G1 X115.651 Y104.624 E28.22916
G1 X117.5 Y104.492 E28.29082
G1 X119.349 Y104.624 E28.35247
G1 X121.167 Y105.02 E28.41436
G1 X122.894 Y105.663 E28.47565
G1 X124.539 Y106.563 E28.53802
G1 X126.026 Y107.676 E28.59979
G1 X127.324 Y108.974 E28.66085
G1 X128.437 Y110.461 E28.72263
G1 X129.337 Y112.106 E28.78499
G1 X129.98 Y113.833 E28.84628
G1 X130.376 Y115.651 E28.90817
G1 X130.508 Y117.5 E28.96982
G1 X130.376 Y119.349 E29.03148
G1 X129.98 Y121.167 E29.09336
G1 X129.337 Y122.894 E29.15466
G1 X128.437 Y124.539 E29.21702
G1 X127.324 Y126.026 E29.2788
G1 X126.026 Y127.324 E29.33985
G1 X124.539 Y128.437 E29.40163
G1 X122.894 Y129.337 E29.464
G1 X121.167 Y129.98 E29.52529
G1 X119.349 Y130.376 E29.58717
G1 X117.5 Y130.508 E29.64883
G0 F7500 X117.48 Y130.787
G0 X116.419 Y130.63
G0 X116.46 Y130.051
G0 X116.443 Y130.25
G1 F1200 X118.557 Y130.25 E29.71914
G1 X120.641 Y129.903 E29.78941
G1 X122.64 Y129.217 E29.8597
G1 X124.497 Y128.211 E29.92995
G1 X126.165 Y126.913 E30.00024
G1 X127.595 Y125.358 E30.07051
G1 X128.752 Y123.59 E30.14078
G1 X129.601 Y121.653 E30.21113
G1 X130.119 Y119.605 E30.28139
G1 X130.294 Y117.5 E30.35164
G1 X130.119 Y115.395 E30.4219
G1 X129.601 Y113.347 E30.49216
G1 X128.752 Y111.41 E30.5625
G1 X127.595 Y109.642 E30.63278
G1 X126.165 Y108.087 E30.70304
G1 X124.497 Y106.789 E30.77334
G1 X122.64 Y105.783 E30.84358
