;FLAVOR:Marlin
;TIME:4306
;Filament used: 2.44665m
;Layer height: 0.2
;MINX:92.658
;MINY:93.102
;MINZ:0.2
;MAXX:142.036
;MAXY:142.459
;MAXZ:40
;Generated with Cura_SteamEngine 4.8.0
M140 S50
M105
M190 S50
M104 S200
M105
M109 S200
M82 ;absolute extrusion mode
; Ender 3 Custom Start G-code
G92 E0 ; Reset Extruder
G28 ; Home all axes
G1 Z2.0 F3000 ; Move Z Axis up little to prevent scratching of Heat Bed
G1 X0.1 Y20 Z0.3 F5000.0 ; Move to start position
G1 X0.1 Y200.0 Z0.3 F1500.0 E15 ; Draw the first line
G1 X0.4 Y200.0 Z0.3 F5000.0 ; Move to side a little
G1 X0.4 Y20 Z0.3 F1500.0 E30 ; Draw the second line
G92 E0 ; Reset Extruder
G1 Z2.0 F3000 ; Move Z Axis up little to prevent scratching of Heat Bed
G1 X5 Y20 Z0.3 F5000.0 ; Move over to prevent blob squish
G92 E0
G92 E0
G1 F2700 E-5
;LAYER_COUNT:200
;LAYER:0
M107
G0 F6000 X99.959 Y100.221 Z0.2
;TYPE:SKIRT
G1 F2700 E0
G1 F1200 X100.782 Y99.448 E0.03755
G1 X101.071 Y99.186 E0.05053
G1 X101.494 Y98.816 E0.06922
G1 X102.277 Y98.192 E0.10252
G1 X103.224 Y97.505 E0.14143
G1 X103.545 Y97.281 E0.15445
G1 X104.006 Y96.971 E0.17293
G1 X104.856 Y96.454 E0.20602
G1 X105.83 Y95.92 E0.24296
G1 X106.162 Y95.745 E0.25545
G1 X106.693 Y95.477 E0.27523
G1 X107.609 Y95.066 E0.30862
G1 X108.65 Y94.655 E0.34585
G1 X109.027 Y94.514 E0.35923
G1 X109.565 Y94.324 E0.37821
G1 X110.505 Y94.038 E0.41089
G1 X111.593 Y93.76 E0.44824
G1 X111.948 Y93.676 E0.46037
G1 X112.506 Y93.553 E0.47938
G1 X113.513 Y93.379 E0.51337
G1 X114.636 Y93.239 E0.55101
G1 X114.999 Y93.2 E0.56315
G1 X115.548 Y93.15 E0.58149
G1 X116.561 Y93.105 E0.61521
G1 X117.237 Y93.106 E0.6377
G1 X117.562 Y93.102 E0.64851
G1 X117.842 Y93.102 E0.65782
G1 X118.364 Y93.109 E0.67518
G1 X119.371 Y93.169 E0.70874
G1 X120.509 Y93.289 E0.7468
G1 X120.911 Y93.339 E0.76027
G1 X121.457 Y93.417 E0.77861
G1 X122.419 Y93.598 E0.81117
G1 X123.495 Y93.851 E0.84793
G1 X123.857 Y93.943 E0.86036
G1 X124.41 Y94.093 E0.87942
G1 X125.37 Y94.401 E0.91295
G1 X126.433 Y94.797 E0.95068
G1 X126.793 Y94.939 E0.96355
G1 X127.294 Y95.146 E0.98158
G1 X128.195 Y95.566 E1.01464
G1 X129.198 Y96.091 E1.05229
G1 X129.544 Y96.28 E1.06541
G1 X130.03 Y96.557 E1.08401
G1 X130.859 Y97.08 E1.11661
G1 X131.796 Y97.731 E1.15456
G1 X132.101 Y97.951 E1.16707
G1 X132.539 Y98.278 E1.18525
G1 X133.325 Y98.924 E1.21909
G1 X134.161 Y99.678 E1.25653
G1 X134.445 Y99.942 E1.26943
G1 X134.851 Y100.335 E1.28822
G1 X135.534 Y101.06 E1.32135
G1 X136.255 Y101.897 E1.3581
G1 X136.494 Y102.184 E1.37052
G1 X136.912 Y102.704 E1.39271
G1 X137.266 Y103.169 E1.41215
G1 X137.338 Y103.269 E1.41625
G1 X137.635 Y103.703 E1.43374
G1 X137.978 Y104.232 E1.45471
G1 X138.255 Y104.67 E1.47194
G1 X138.572 Y105.187 E1.49211
G1 X139.044 Y106.039 E1.52451
G1 X139.586 Y107.129 E1.565
G1 X139.931 Y107.853 E1.59167
G1 X140.203 Y108.473 E1.61419
G1 X140.242 Y108.57 E1.61767
G1 X140.393 Y108.966 E1.63176
G1 X140.588 Y109.514 E1.65111
G1 X140.748 Y109.979 E1.66747
G1 X140.952 Y110.595 E1.68905
G1 X141.223 Y111.556 E1.72226
G1 X141.475 Y112.637 E1.75918
G1 X141.553 Y113 E1.77152
G1 X141.661 Y113.546 E1.79004
G1 X141.811 Y114.541 E1.8235
G1 X141.931 Y115.694 E1.86206
G1 X141.964 Y116.071 E1.87465
G1 X142.011 Y116.748 E1.89722
G1 X142.036 Y117.687 E1.92846
G1 X142.031 Y117.998 E1.93881
G1 X142.023 Y118.27 E1.94786
G1 X141.993 Y119.004 E1.97229
G1 X141.949 Y119.764 E1.99761
G1 X141.847 Y120.736 E2.03012
G1 X141.695 Y121.749 E2.06419
G1 X141.632 Y122.125 E2.07687
G1 X141.521 Y122.723 E2.0971
G1 X141.435 Y123.146 E2.11145
G1 X141.317 Y123.639 E2.12831
G1 X141.206 Y124.061 E2.14283
G1 X141.131 Y124.333 E2.15221
G1 X140.979 Y124.856 E2.17033
G1 X140.905 Y125.1 E2.17881
G1 X140.711 Y125.714 E2.20022
G1 X140.355 Y126.682 E2.23453
G1 X139.913 Y127.728 E2.2723
G1 X139.765 Y128.061 E2.28442
G1 X139.508 Y128.617 E2.30479
G1 X139.048 Y129.504 E2.33802
G1 X138.546 Y130.373 E2.3714
G1 X138.353 Y130.695 E2.38389
G1 X137.986 Y131.283 E2.40694
G1 X137.397 Y132.134 E2.44136
G1 X136.745 Y132.988 E2.4771
G1 X136.515 Y133.28 E2.48946
G1 X136.096 Y133.792 E2.51147
G1 X135.431 Y134.533 E2.54458
G1 X134.605 Y135.374 E2.58379
G1 X134.331 Y135.643 E2.59656
G1 X133.916 Y136.037 E2.61559
G1 X133.182 Y136.675 E2.64794
G1 X132.493 Y137.222 E2.6772
G1 X132.103 Y137.521 E2.69354
G1 X131.501 Y137.964 E2.7184
G1 X130.966 Y138.332 E2.74
G1 X130.763 Y138.463 E2.74804
G1 X130.436 Y138.666 E2.76084
G1 X129.659 Y139.128 E2.7909
G1 X129.368 Y139.295 E2.80206
G1 X128.803 Y139.61 E2.82358
G1 X127.947 Y140.039 E2.85542
G1 X127.414 Y140.278 E2.87485
G1 X127.173 Y140.383 E2.8836
G1 X126.534 Y140.65 E2.90663
G1 X125.903 Y140.905 E2.92927
G1 X125.045 Y141.211 E2.95956
G1 X124.752 Y141.302 E2.96977
G1 X124.46 Y141.388 E2.97989
G1 X123.607 Y141.626 E3.00935
G1 X123.018 Y141.781 E3.0296
G1 X122.032 Y141.993 E3.06315
G1 X120.925 Y142.178 E3.10048
G1 X120.539 Y142.235 E3.11346
G1 X119.813 Y142.33 E3.13781
G1 X119.23 Y142.391 E3.15731
G1 X119.113 Y142.4 E3.16121
G1 X118.604 Y142.427 E3.17816
G1 X117.876 Y142.448 E3.20238
G1 X117.335 Y142.457 E3.22038
G1 X116.842 Y142.459 E3.23678
G1 X116.15 Y142.44 E3.2598
G1 X115.607 Y142.408 E3.27789
G1 X115.207 Y142.377 E3.29124
G1 X114.862 Y142.344 E3.30277
G1 X114.541 Y142.309 E3.31351
G1 X113.456 Y142.173 E3.34987
G1 X112.541 Y142.019 E3.38074
G1 X112.099 Y141.919 E3.39581
G1 X111.585 Y141.792 E3.41342
G1 X110.947 Y141.628 E3.43533
G1 X110.407 Y141.481 E3.45394
G1 X109.457 Y141.175 E3.48714
G1 X108.313 Y140.749 E3.52774
G1 X107.935 Y140.6 E3.54125
G1 X107.287 Y140.331 E3.56459
G1 X106.425 Y139.929 E3.59622
G1 X106.206 Y139.815 E3.60444
G1 X105.978 Y139.693 E3.61304
G1 X105.342 Y139.342 E3.6372
G1 X104.553 Y138.895 E3.66736
G1 X103.773 Y138.409 E3.69793
G1 X103.461 Y138.196 E3.71049
G1 X103.196 Y138.009 E3.72128
G1 X102.514 Y137.512 E3.74935
G1 X101.982 Y137.113 E3.77146
G1 X101.26 Y136.522 E3.8025
G1 X100.964 Y136.258 E3.81569
G1 X100.784 Y136.094 E3.82379
G1 X100.192 Y135.542 E3.85071
G1 X99.613 Y134.983 E3.87748
G1 X98.946 Y134.277 E3.90978
G1 X98.736 Y134.034 E3.92046
G1 X98.539 Y133.799 E3.93066
G1 X98.002 Y133.141 E3.95891
G1 X97.696 Y132.757 E3.97524
G1 X97.445 Y132.43 E3.98895
G1 X97.17 Y132.057 E4.00437
G1 X96.821 Y131.554 E4.02473
G1 X96.694 Y131.36 E4.03244
G1 X96.502 Y131.056 E4.0444
G1 X96.168 Y130.506 E4.0658
G1 X95.837 Y129.943 E4.08752
G1 X95.523 Y129.371 E4.10923
G1 X95.427 Y129.183 E4.11625
G1 X95.257 Y128.833 E4.12919
G1 X94.828 Y127.914 E4.16292
G1 X94.696 Y127.622 E4.17358
G1 X94.468 Y127.094 E4.19271
G1 X94.101 Y126.12 E4.22733
G1 X93.745 Y125.02 E4.26578
G1 X93.631 Y124.645 E4.27882
G1 X93.471 Y124.083 E4.29825
G1 X93.247 Y123.138 E4.33055
G1 X93.032 Y122.014 E4.36862
G1 X92.965 Y121.624 E4.38178
G1 X92.872 Y121.021 E4.40207
G1 X92.765 Y120.033 E4.43512
G1 X92.692 Y118.87 E4.47388
G1 X92.674 Y118.486 E4.48667
G1 X92.658 Y117.909 E4.50587
G1 X92.677 Y116.895 E4.5396
G1 X92.753 Y115.718 E4.57883
G1 X92.783 Y115.346 E4.59124
G1 X92.838 Y114.789 E4.60986
G1 X92.981 Y113.805 E4.64293
G1 X93.192 Y112.701 E4.68031
G1 X93.271 Y112.322 E4.69319
G1 X93.433 Y111.611 E4.71744
G1 X93.669 Y110.741 E4.74742
G1 X93.76 Y110.453 E4.75747
G1 X93.86 Y110.153 E4.76799
G1 X94.16 Y109.293 E4.79828
G1 X94.347 Y108.779 E4.81647
G1 X94.735 Y107.847 E4.85005
G1 X95.218 Y106.823 E4.88771
G1 X95.373 Y106.509 E4.89935
G1 X95.691 Y105.887 E4.92259
G1 X96.16 Y105.06 E4.95421
G1 X96.418 Y104.652 E4.97027
G1 X96.851 Y103.994 E4.99646
G1 X97.373 Y103.229 E5.02727
G1 X97.917 Y102.501 E5.05749
G1 X98.209 Y102.147 E5.07276
G1 X98.751 Y101.515 E5.10045
G1 X99.274 Y100.925 E5.12667
G1 X99.959 Y100.221 E5.15934
G0 F6000 X100.233 Y100.513
G1 F1200 X101.056 Y99.74 E5.1969
G1 X101.334 Y99.488 E5.20938
G1 X101.757 Y99.118 E5.22807
G1 X102.512 Y98.516 E5.26018
G1 X103.459 Y97.829 E5.2991
G1 X103.768 Y97.613 E5.31164
G1 X104.229 Y97.303 E5.33011
G1 X105.048 Y96.804 E5.36201
G1 X106.022 Y96.27 E5.39896
G1 X106.342 Y96.102 E5.41098
G1 X106.873 Y95.834 E5.43076
G1 X107.756 Y95.438 E5.46295
G1 X108.797 Y95.027 E5.50017
G1 X109.16 Y94.891 E5.51306
G1 X109.698 Y94.701 E5.53204
G1 X110.604 Y94.426 E5.56353
G1 X111.692 Y94.148 E5.60088
G1 X112.034 Y94.067 E5.61257
G1 X112.592 Y93.944 E5.63158
G1 X113.563 Y93.776 E5.66435
G1 X114.686 Y93.636 E5.70199
G1 X115.036 Y93.599 E5.7137
G1 X115.585 Y93.549 E5.73203
G1 X116.56 Y93.505 E5.7645
G1 X117.242 Y93.506 E5.78718
G1 X117.567 Y93.502 E5.79799
G1 X117.837 Y93.502 E5.80697
G1 X118.359 Y93.509 E5.82433
G1 X119.329 Y93.566 E5.85665
G1 X120.467 Y93.686 E5.89471
G1 X120.854 Y93.735 E5.90769
G1 X121.4 Y93.813 E5.92603
G1 X122.327 Y93.987 E5.9574
G1 X123.403 Y94.24 E5.99416
G1 X123.752 Y94.329 E6.00614
G1 X124.305 Y94.479 E6.0252
G1 X125.23 Y94.776 E6.05751
G1 X126.293 Y95.172 E6.09524
G1 X126.641 Y95.308 E6.10767
G1 X127.142 Y95.515 E6.1257
G1 X128.01 Y95.921 E6.15757
G1 X129.013 Y96.446 E6.19522
G1 X129.346 Y96.628 E6.20785
G1 X129.832 Y96.905 E6.22645
G1 X130.631 Y97.409 E6.25787
G1 X131.568 Y98.06 E6.29582
G1 X131.861 Y98.271 E6.30783
G1 X132.299 Y98.598 E6.32601
G1 X133.057 Y99.221 E6.35864
G1 X133.893 Y99.975 E6.39609
G1 X134.166 Y100.23 E6.40851
G1 X134.572 Y100.623 E6.42731
G1 X135.231 Y101.321 E6.45923
G1 X135.952 Y102.158 E6.49598
G1 X136.183 Y102.435 E6.50797
G1 X136.601 Y102.955 E6.53016
G1 X136.941 Y103.402 E6.54884
G1 X137.013 Y103.502 E6.55294
G1 X137.3 Y103.921 E6.56983
G1 X137.64 Y104.446 E6.59064
G1 X137.914 Y104.879 E6.60768
G1 X138.231 Y105.396 E6.62785
G1 X138.685 Y106.217 E6.65905
G1 X139.227 Y107.307 E6.69954
G1 X139.57 Y108.025 E6.72601
G1 X139.832 Y108.622 E6.74769
G1 X139.871 Y108.719 E6.75117
G1 X140.016 Y109.101 E6.76476
G1 X140.21 Y109.645 E6.78397
G1 X140.369 Y110.105 E6.80016
G1 X140.573 Y110.721 E6.82174
G1 X140.833 Y111.646 E6.8537
G1 X141.085 Y112.727 E6.89062
G1 X141.161 Y113.077 E6.90253
G1 X141.269 Y113.623 E6.92104
G1 X141.413 Y114.583 E6.95333
G1 X141.533 Y115.736 E6.99188
G1 X141.565 Y116.099 E7.004
G1 X141.612 Y116.776 E7.02657
G1 X141.636 Y117.68 E7.05665
G1 X141.631 Y117.991 E7.067
G1 X141.623 Y118.254 E7.07575
G1 X141.583 Y119.191 E7.10694
G1 X141.55 Y119.74 E7.12523
G1 X141.452 Y120.677 E7.15657
G1 X141.3 Y121.69 E7.19064
G1 X141.239 Y122.052 E7.20285
G1 X141.128 Y122.65 E7.22308
G1 X141.044 Y123.062 E7.23706
G1 X140.93 Y123.537 E7.25331
G1 X140.819 Y123.959 E7.26782
G1 X140.747 Y124.221 E7.27686
G1 X140.595 Y124.744 E7.29498
G1 X140.523 Y124.98 E7.30318
G1 X140.329 Y125.594 E7.3246
G1 X139.986 Y126.526 E7.35763
G1 X139.544 Y127.572 E7.3954
G1 X139.402 Y127.894 E7.4071
G1 X139.145 Y128.45 E7.42748
G1 X138.702 Y129.304 E7.45947
G1 X138.2 Y130.173 E7.49285
G1 X138.013 Y130.483 E7.5049
G1 X137.646 Y131.071 E7.52795
G1 X137.079 Y131.891 E7.56111
G1 X136.427 Y132.745 E7.59684
G1 X136.205 Y133.026 E7.60875
G1 X135.786 Y133.538 E7.63076
G1 X135.145 Y134.253 E7.6627
G1 X134.319 Y135.094 E7.7019
G1 X134.055 Y135.353 E7.7142
G1 X133.64 Y135.747 E7.73324
G1 X132.933 Y136.362 E7.7644
G1 X132.244 Y136.909 E7.79366
G1 X131.861 Y137.202 E7.8097
G1 X131.717 Y137.31 E7.81569
G1 X131.265 Y137.641 E7.83432
G1 X130.75 Y137.995 E7.85511
G1 X130.547 Y138.126 E7.86314
G1 X130.231 Y138.322 E7.87551
G1 X129.459 Y138.781 E7.90538
G1 X129.173 Y138.945 E7.91635
G1 X128.608 Y139.26 E7.93787
G1 X127.783 Y139.674 E7.96857
G1 X127.25 Y139.913 E7.98799
G1 X127.018 Y140.014 E7.99641
G1 X126.385 Y140.279 E8.01923
G1 X125.754 Y140.534 E8.04187
G1 X124.926 Y140.829 E8.07111
G1 X124.633 Y140.92 E8.08131
G1 X124.352 Y141.003 E8.09106
G1 X123.506 Y141.239 E8.12027
G1 X122.917 Y141.394 E8.14052
G1 X121.966 Y141.598 E8.17287
G1 X120.859 Y141.783 E8.2102
G1 X120.487 Y141.838 E8.22271
G1 X119.761 Y141.933 E8.24706
G1 X119.199 Y141.992 E8.26586
G1 X119.082 Y142.001 E8.26976
G1 X118.592 Y142.027 E8.28608
G1 X117.869 Y142.048 E8.31014
G1 X117.333 Y142.057 E8.32797
G1 X116.84 Y142.059 E8.34437
G1 X116.173 Y142.041 E8.36656
G1 X115.63 Y142.009 E8.38465
G1 X115.245 Y141.979 E8.3975
G1 X114.9 Y141.946 E8.40902
G1 X114.591 Y141.912 E8.41936
G1 X113.506 Y141.776 E8.45573
G1 X112.624 Y141.627 E8.48548
G1 X112.195 Y141.531 E8.5001
G1 X111.684 Y141.405 E8.51761
G1 X111.052 Y141.242 E8.53932
G1 X110.512 Y141.095 E8.55793
G1 X109.597 Y140.801 E8.5899
G1 X108.453 Y140.375 E8.6305
G1 X108.088 Y140.231 E8.64355
G1 X107.44 Y139.962 E8.66689
G1 X106.61 Y139.574 E8.69736
G1 X106.171 Y139.343 E8.71386
G1 X105.539 Y138.994 E8.73787
G1 X104.75 Y138.547 E8.76803
G1 X103.998 Y138.078 E8.79751
G1 X103.686 Y137.865 E8.81007
G1 X103.431 Y137.686 E8.82044
G1 X102.754 Y137.192 E8.84831
G1 X102.222 Y136.793 E8.87043
G1 X101.526 Y136.224 E8.90033
G1 X101.23 Y135.96 E8.91352
G1 X101.057 Y135.802 E8.92131
G1 X100.465 Y135.25 E8.94823
G1 X99.891 Y134.696 E8.97477
G1 X99.249 Y134.016 E9.00587
G1 X99.039 Y133.773 E9.01655
G1 X98.848 Y133.546 E9.02642
G1 X98.315 Y132.892 E9.05448
G1 X98.009 Y132.508 E9.07081
G1 X97.767 Y132.192 E9.08405
G1 X97.492 Y131.819 E9.09946
G1 X97.155 Y131.335 E9.11908
G1 X97.028 Y131.141 E9.12679
G1 X96.843 Y130.848 E9.13832
G1 X96.513 Y130.303 E9.15951
G1 X96.182 Y129.74 E9.18123
G1 X95.88 Y129.189 E9.20213
G1 X95.784 Y129.001 E9.20915
G1 X95.619 Y128.664 E9.22163
G1 X95.19 Y127.745 E9.25536
G1 X95.064 Y127.463 E9.26564
G1 X94.836 Y126.935 E9.28476
G1 X94.482 Y125.997 E9.31811
G1 X94.126 Y124.897 E9.35656
G1 X94.016 Y124.535 E9.36915
G1 X93.856 Y123.973 E9.38858
G1 X93.64 Y123.062 E9.41972
G1 X93.425 Y121.938 E9.45779
G1 X93.36 Y121.563 E9.47044
G1 X93.267 Y120.96 E9.49074
G1 X93.164 Y120.008 E9.52259
G1 X93.091 Y118.845 E9.56134
G1 X93.074 Y118.475 E9.57366
G1 X93.058 Y117.898 E9.59286
G1 X93.076 Y116.921 E9.62536
G1 X93.152 Y115.744 E9.66459
G1 X93.181 Y115.385 E9.67657
G1 X93.236 Y114.828 E9.69519
G1 X93.373 Y113.88 E9.72704
G1 X93.584 Y112.776 E9.76443
G1 X93.661 Y112.411 E9.77683
G1 X93.823 Y111.7 E9.80109
G1 X94.051 Y110.861 E9.83001
G1 X94.142 Y110.573 E9.84005
G1 X94.237 Y110.285 E9.85014
G1 X94.536 Y109.43 E9.88026
G1 X94.723 Y108.916 E9.89846
G1 X95.097 Y108.018 E9.93081
G1 X95.58 Y106.994 E9.96847
G1 X95.729 Y106.691 E9.9797
G1 X96.047 Y106.069 E10.00293
G1 X96.499 Y105.272 E10.03341
G1 X96.752 Y104.872 E10.04915
G1 X97.185 Y104.214 E10.07535
G1 X97.703 Y103.455 E10.10591
G1 X98.227 Y102.753 E10.13505
G1 X98.336 Y102.619 E10.14079
G1 X98.513 Y102.408 E10.14995
G1 X99.183 Y101.628 E10.18415
G1 X99.572 Y101.191 E10.20361
G1 X100.233 Y100.513 E10.2351
G0 F6000 X100.507 Y100.804
G1 F1200 X101.33 Y100.031 E10.27266
G1 X101.598 Y99.789 E10.28467
G1 X102.021 Y99.419 E10.30336
G1 X102.747 Y98.84 E10.33425
G1 X103.694 Y98.153 E10.37316
G1 X103.991 Y97.945 E10.38522
G1 X104.452 Y97.635 E10.4037
G1 X105.24 Y97.155 E10.43438
G1 X106.214 Y96.621 E10.47133
G1 X106.522 Y96.459 E10.4829
G1 X107.053 Y96.191 E10.50269
G1 X107.903 Y95.81 E10.53367
G1 X108.944 Y95.399 E10.57089
G1 X109.293 Y95.268 E10.58329
G1 X109.831 Y95.078 E10.60227
G1 X110.703 Y94.814 E10.63257
G1 X111.791 Y94.536 E10.66992
G1 X112.12 Y94.457 E10.68117
G1 X112.678 Y94.334 E10.70018
G1 X113.612 Y94.173 E10.7317
G1 X114.735 Y94.033 E10.76934
G1 X115.072 Y93.997 E10.78062
G1 X115.621 Y93.947 E10.79895
G1 X116.56 Y93.905 E10.83021
G1 X117.246 Y93.906 E10.85303
G1 X117.572 Y93.902 E10.86387
G1 X117.832 Y93.902 E10.87252
G1 X118.354 Y93.909 E10.88988
G1 X119.287 Y93.964 E10.92097
G1 X120.425 Y94.084 E10.95903
G1 X120.797 Y94.131 E10.9715
G1 X121.343 Y94.209 E10.98985
G1 X122.236 Y94.377 E11.02007
G1 X123.312 Y94.63 E11.05683
G1 X123.647 Y94.715 E11.06833
G1 X124.2 Y94.865 E11.08738
G1 X125.091 Y95.151 E11.11851
G1 X126.154 Y95.547 E11.15624
G1 X126.488 Y95.678 E11.16817
G1 X126.989 Y95.885 E11.1862
G1 X127.824 Y96.275 E11.21685
G1 X128.827 Y96.8 E11.25451
G1 X129.148 Y96.975 E11.26667
G1 X129.634 Y97.252 E11.28527
G1 X130.403 Y97.737 E11.31551
G1 X131.34 Y98.388 E11.35346
G1 X131.622 Y98.592 E11.36503
G1 X132.06 Y98.919 E11.38321
G1 X132.789 Y99.518 E11.4146
G1 X133.625 Y100.272 E11.45204
G1 X133.888 Y100.517 E11.464
G1 X134.294 Y100.91 E11.48279
G1 X134.928 Y101.582 E11.51352
G1 X135.649 Y102.419 E11.55026
G1 X135.871 Y102.685 E11.56178
G1 X136.289 Y103.205 E11.58397
G1 X136.617 Y103.636 E11.60199
G1 X136.689 Y103.736 E11.60609
